Abdelrahman-Mohamed-Taha-MAHMOUD/Prof_De_Preter_R_practical_sessions/2. Data visualisations Heatmaps + Statistics/qPCR_expression_data.tsv
genename	A1	A10	A11	A12	A13	A14	A15	A16	A17	A18	A19	A2	A20	A21	A22	A23	A24	A3	A4	A5	A6	A7	A8	A9	B1	B10	B11	B12	B13	B14	B15	B16	B17	B18	B19	B2	B20	B21	B22	B23	B24	B3	B4	B5	B6	B7	B8	B9	C1	C10	C11	C12	C13	C14	C15	C16	C17	C18	C19	C2	C20	C21	C22	C23	C24	C3	C4	C5	C6	C7	C8	C9	D1	D10	D11	D12	D13	D14	D15	D16	D17	D18	D19	D2	D20	D21	D22	D23	D24	D3	D4	D5	D6	D7	D8	D9	E1	E10	E11	E12	E13	E14	E15	E16	E17	E18	E19	E2	E20	E21	E22	E23	E24	E3	E4	E5	E6	E7	E8	E9	F1	F10	F11	F12	F13	F14	F15	F16	F17	F18	F19	F2	F20	F21	F22	F23	F3	F4	F5	F7	F8	F9	G1	G10	G11	G12	G13	G14	G15	G16	G17	G18	G19	G2	G20	G21	G22	G23	G24	G3	G4	G5	G6	G7	G8	G9	H1	H10	H11	H12	H13	H14	H15	H16	H17	H18	H19	H2	H20	H21	H22	H23	H24	H3	H4	H5	H6	H7	H8	H9	I1	I10	I11	I12	I13	I14	I15	I16	I17	I18	I19	I2	I20	I21	I22	I23	I24	I3	I4	I5	I6	I7	I8	I9	J1	J10	J11	J12	J13	J14	J15	J16	J17	J18	J19	J2	J20	J21	J22	J23	J24	J3	J4	J5	J6	J7	J8	J9	K1	K10	K11	K12	K13	K14	K15	K16	K17	K18	K19	K2	K20	K21	K22	K23	K24	K3	K4	K5	K6	K7	K8	K9	L1	L10	L11	L12	L13	L14	L15	L16	L17	L18	L19	L2	L20	L21	L22	L23	L24	L3	L4	L5	L6	L7	L8	L9	M1	M10	M11	M12	M13	M14	M15	M16	M17	M18	M19	M2	M20	M21	M22	M23	M24	M3	M4	M5	M6	M7	M8	M9	N1	N10	N11	N12	N13	N15	N17	N19	N2	N21	N23	N3	N4	N5	N6	N7	N8	N9	O1	O10	O11	O12	O13	O14	O15	O16	O17	O18	O19	O2	O20	O21	O22	O23	O24	O3	O4	O5	O6	O7	O8	O9	P1	P11	P13	P15	P17	P19	P21	P23	P3	P5	P7	P9
gene8	-0.669021093	2.423478907	-1.069021093	0.883478907	-1.716521093	-0.501521093	-3.316521093	1.153478907	-0.476521093	1.248478907	-3.346521093	-0.094021093	-0.171521093	-3.194021093	0.195978907	-0.889021093	0.130978907	1.120978907	1.935978907	-3.659021093	0.288478907	-0.879021093	-1.449021093	-2.721521093	-0.504021093	-1.221521093	-0.736521093	-1.089021093	-0.516521093	-0.229021093	0.295978907	1.428478907	-1.979021093	-0.721521093	-2.251521093	-1.671521093	-1.059021093	-1.456521093	-1.576521093	-5.349021093	-0.529021093	-0.081521093	-0.966521093	-0.629021093	-1.261521093	-0.299021093	-1.226521093	-1.546521093	-0.239021093	3.183478907	3.383478907	-2.376521093	4.048478907	-3.029021093	5.395978907	-0.869021093	2.873478907	-1.846521093	1.775978907	0.175978907	1.865978907	1.950978907	-1.081521093	-0.199021093	0.728478907	2.883478907	1.148478907	3.758478907	1.215978907	3.688478907	-0.151521093	5.378478907	-1.726521093	0.993478907	0.143478907	1.735978907	-1.564021093	1.230978907	-0.724021093	0.753478907	-1.644021093	3.295978907	-1.334021093	-0.351521093	-0.404021093	0.885978907	-2.826521093	0.550978907	0.758478907	-0.414021093	0.958478907	-1.001521093	0.390978907	0.195978907	-1.209021093	-0.161521093	1.270978907	-1.726521093	-0.394021093	-2.484021093	-1.829021093	-4.051521093	-1.316521093	-3.846521093	1.425978907	-1.434021093	0.370978907	-1.569021093	-0.444021093	-0.644021093	-0.329021093	1.445978907	0.008478907	-1.371521093	-2.126521093	-1.616521093	-1.659021093	-1.726521093	-2.006521093	-0.996521093	-0.701521093	1.198478907	-3.284021093	0.503478907	-2.554021093	-1.386521093	-2.391521093	-0.241521093	-0.704021093	1.540978907	-1.116521093	2.358478907	1.013478907	0.398478907	0.915978907	1.980978907	-0.584021093	1.630978907	-2.221521093	-1.041521093	-1.066521093	-0.151521093	2.518478907	-0.714021093	1.815978907	-0.759021093	2.660978907	-1.636521093	3.285978907	-0.666521093	1.668478907	-1.789021093	3.758478907	-2.089021093	-1.436521093	-0.349021093	-0.714021093	-1.021521093	0.170978907	2.338478907	-1.614021093	5.820978907	-0.161521093	3.470978907	-2.526521093	2.600978907	-1.151521093	-1.054021093	-4.349021093	-2.421521093	0.393478907	0.445978907	2.703478907	-2.269021093	-0.779021093	-1.524021093	3.915978907	-0.356521093	-1.816521093	-0.761521093	-1.666521093	0.110978907	-0.564021093	0.185978907	-1.511521093	0.093478907	-2.514021093	0.260978907	-0.396521093	-0.936521093	-1.409021093	-0.834021093	-2.631521093	-1.136521093	-1.934021093	-0.071521093	-3.134021093	1.260978907	-1.994021093	0.855978907	-2.464021093	-1.159021093	0.353478907	-0.556521093	0.408478907	-0.504021093	0.733478907	-0.416521093	-1.001521093	-0.846521093	-1.526521093	-0.654021093	-3.064021093	-0.596521093	2.133478907	0.653478907	5.618478907	-0.741521093	-0.114021093	0.71847890700000006	0.330978907	-1.209021093	-0.419021093	0.425978907	1.553478907	-1.996521093	0.688478907	-0.369021093	0.605978907	-1.499021093	-1.654021093	1.575978907	0.978478907	-2.376521093	2.498478907	0.400978907	0.230978907	-0.499021093	-2.719021093	3.045978907	-1.066521093	5.203478907	-0.296521093	3.038478907	0.180978907	2.805978907	3.723478907	0.598478907	-0.256521093	-0.486521093	0.868478907	-0.696521093	-1.019021093	-0.84402109299999994	-0.049021093	1.085978907	0.028478907	-1.461521093	-0.429021093	-0.804021093	0.675978907	-0.036521093	-0.579021093	-0.139021093	-0.211521093	-2.294021093	0.580978907	-1.721521093	-0.53152109299999994	-0.251521093	1.423478907	-1.471521093	0.260978907	0.078478907	-2.074021093	-0.511521093	1.838478907	-0.161521093	0.645978907	-0.016521093	0.215978907	0.345978907	-0.144021093	1.245978907	-0.121521093	-0.296521093	-0.434021093	3.488478907	5.005978907	-0.684021093	6.318478907	1.720978907	4.420978907	-0.074021093	4.460978907	-0.189021093	2.815978907	-0.956521093	-0.544021093	-0.394021093	0.818478907	-0.759021093	0.075978907	2.780978907	-1.134021093	4.643478907	0.220978907	2.718478907	-1.299021093	2.193478907	2.853478907	-0.416521093	0.045978907	-0.939021093	0.443478907	-0.499021093	0.200978907	0.795978907	0.315978907	1.048478907	0.558478907	0.125978907	-1.369021093	-0.029021093	-0.109021093	1.815978907	-0.479021093	-0.449021093	-0.874021093	-0.116521093	1.380978907	-0.756521093	1.203478907	0.198478907	1.380978907	0.663478907	-1.284021093	-0.246521093	1.270978907	-1.686521093	0.303478907	1.895978907	-0.491521093	-3.841521093	1.078478907	-0.221521093	-1.139021093	-2.111521093	-1.386521093	-0.364021093	-1.846521093	-1.096521093	0.353478907	0.265978907	-0.239021093	2.125978907	0.033478907	0.630978907	1.555978907	-0.024021093	2.148478907	2.583478907	2.503478907	3.505978907
gene9	0.423722527	3.066222527	-4.446277473	0.066222527	-1.533777473	1.791222527	0.376222527	2.056222527	-2.873777473	2.681222527	-0.143777473	2.818722527	1.421222527	-0.101277473	-0.061277473	1.063722527	1.753722527	-2.776277473	1.518722527	1.693722527	3.041222527	-4.856277473	1.333722527	-3.498777473	2.478722527	2.191222527	1.816222527	1.873722527	1.226222527	2.473722527	-0.611277473	2.781222527	1.123722527	0.481222527	-1.108777473	2.011222527	2.663722527	-1.043777473	1.916222527	-0.638777473	0.493722527	1.821222527	0.916222527	1.083722527	1.371222527	1.843722527	2.746222527	1.866222527	-0.116277473	0.456222527	-2.203777473	-0.163777473	-2.858777473	-1.386277473	-4.421277473	3.113722527	-0.233777473	0.416222527	1.508722527	2.948722527	-2.961277473	1.333722527	1.471222527	1.273722527	3.411222527	0.696222527	2.601222527	0.771222527	1.768722527	-0.358777473	4.611222527	1.241222527	2.256222527	-0.153777473	2.116222527	-2.911277473	0.598722527	0.563722527	1.628722527	-6.763777473	0.848722527	5.248722527	1.348722527	2.451222527	1.318722527	2.158722527	-4.723777473	-6.076277473	2.421222527	-0.181277473	-3.938777473	1.281222527	-1.226277473	-1.891277473	-5.466277473	1.071222527	-2.676277473	-0.493777473	-4.481277473	-0.78127747299999994	-4.086277473	-3.298777473	-4.613777473	2.236222527	-3.481277473	0.228722527	-3.496277473	0.403722527	1.068722527	-0.001277473	-2.846277473	-0.711277473	1.171222527	-1.938777473	1.126222527	-4.243777473	0.213722527	-4.493777473	0.176222527	-3.273777473	2.741222527	3.141222527	-0.091277473	1.646222527	0.518722527	-1.173777473	-1.948777473	1.201222527	0.398722527	3.763722527	0.206222527	-1.908777473	1.856222527	3.291222527	2.658722527	-0.326277473	1.268722527	1.753722527	-0.138777473	-1.098777473	-3.803777473	0.831222527	-0.138777473	0.498722527	-1.381277473	-0.716277473	-5.416277473	-4.003777473	-2.301277473	-3.283777473	-1.318777473	-0.036277473	-1.258777473	0.203722527	0.106222527	1.493722527	-1.641277473	-0.028777473	0.073722527	1.361222527	0.238722527	-5.236277473	1.781222527	-4.756277473	-0.893777473	0.273722527	0.051222527	1.358722527	3.723722527	-1.288777473	0.376222527	0.368722527	1.206222527	-1.756277473	3.493722527	1.238722527	-0.151277473	-0.193777473	0.156222527	2.411222527	1.466222527	2.943722527	-1.791277473	-0.931277473	1.061222527	-3.583777473	0.218722527	1.853722527	0.346222527	0.966222527	-2.046277473	-1.581277473	-4.098777473	-2.163777473	-5.411277473	-3.398777473	-2.921277473	-1.606277473	-3.781277473	1.628722527	-3.961277473	0.663722527	-2.323777473	-0.833777473	3.451222527	-1.161277473	1.296222527	0.476222527	0.851222527	-3.113777473	0.686222527	-2.661277473	-2.671277473	-1.453777473	0.646222527	-0.883777473	-1.598777473	-1.948777473	0.378722527	1.851222527	2.193722527	1.553722527	3.003722527	-3.791277473	0.606222527	-4.763777473	-3.288777473	2.963722527	-0.151277473	2.313722527	0.088722527	3.678722527	-5.168777473	0.926222527	5.681222527	1.753722527	0.413722527	2.533722527	-1.526277473	-2.001277473	-3.013777473	-6.533777473	-1.593777473	-3.768777473	-3.766277473	-1.591277473	-4.323777473	2.841222527	-4.903777473	2.756222527	-2.248777473	-4.253777473	0.353722527	2.318722527	2.723722527	-5.771277473	2.301222527	-3.778777473	2.393722527	-2.901277473	-1.101277473	-2.403777473	2.273722527	-2.196277473	0.281222527	-1.811277473	1.853722527	-2.578777473	2.571222527	-0.408777473	3.536222527	2.591222527	2.513722527	2.281222527	-0.271277473	1.271222527	1.691222527	2.791222527	-1.951277473	0.946222527	-3.971277473	5.158722527	-1.711277473	-0.761277473	-1.648777473	1.526222527	3.118722527	2.551222527	-7.721277473	1.348722527	-4.878777473	2.833722527	0.293722527	2.228722527	-1.266277473	0.863722527	0.068722527	0.736222527	2.578722527	0.358722527	3.881222527	0.563722527	1.118722527	1.873722527	1.718722527	-1.423777473	1.603722527	-0.928777473	0.453722527	-1.333777473	2.226222527	1.756222527	1.458722527	1.733722527	3.916222527	1.273722527	3.253722527	1.698722527	-2.301277473	1.491222527	-0.598777473	1.328722527	-0.946277473	0.513722527	3.133722527	3.648722527	0.583722527	3.333722527	1.108722527	-0.503777473	-1.006277473	2.306222527	-2.973777473	0.411222527	-1.426277473	2.006222527	-0.341277473	0.226222527	3.193722527	1.056222527	1.706222527	2.198722527	2.791222527	0.651222527	-3.568777473	1.941222527	1.253722527	-0.688777473	0.086222527	0.028722527	1.476222527	-0.813777473	1.076222527	3.038722527	1.673722527	-3.061277473	1.596222527	-0.136277473	4.288722527	2.948722527	-6.588777473	-6.273777473	-0.833777473	0.818722527
gene10	-0.500315934	0.072184066	0.219684066	3.412184066	1.072184066	-0.772815934	3.962184066	-0.827815934	0.122184066	1.597184066	0.162184066	-0.145315934	-0.022815934	0.784684066	-1.395315934	-0.73031593400000006	-1.750315934	0.979684066	0.004684066	1.359684066	3.147184066	2.359684066	0.259684066	2.347184066	1.764684066	0.087184066	1.282184066	1.439684066	3.992184066	-0.820315934	0.684684066	0.577184066	1.359684066	1.637184066	-1.362815934	1.167184066	-1.060315934	0.952184066	-0.257815934	-0.452815934	0.439684066	0.717184066	0.072184066	1.089684066	-0.442815934	0.539684066	0.412184066	3.642184066	0.119684066	1.102184066	0.632184066	2.982184066	0.527184066	2.039684066	-0.445315934	-0.640315934	-0.707815934	1.342184066	-0.675315934	-2.435315934	1.834684066	-2.100315934	-1.722815934	-1.380315934	-1.352815934	1.502184066	-0.622815934	0.177184066	-2.185315934	0.307184066	3.607184066	3.257184066	0.772184066	-2.467815934	0.352184066	-2.915315934	0.174684066	-2.760315934	-0.335315934	-3.497815934	-0.005315934	3.314684066	-0.205315934	1.247184066	-2.475315934	0.044684066	-5.407815934	0.629684066	-1.232815934	-0.365315934	-0.922815934	-1.642815934	0.499684066	0.64468406599999994	0.509684066	0.137184066	-1.550315934	1.272184066	0.264684066	3.604684066	-3.440315934	2.427184066	-4.287815934	1.062184066	-2.355315934	-1.285315934	-3.460315934	-0.570315934	0.564684066	-2.105315934	-1.660315934	-2.705315934	-0.532815934	-0.512815934	-1.377815934	-1.227815934	-1.020315934	-1.557815934	0.442184066	-0.797815934	-1.002815934	1.497184066	0.994684066	2.162184066	0.194684066	-4.907815934	-1.242815934	-1.282815934	0.204684066	-1.760315934	-0.027815934	-7.142815934	3.812184066	-1.412815934	3.514684066	1.459684066	0.334684066	-2.980315934	0.167184066	-0.902815934	-4.077815934	2.387184066	-0.412815934	0.414684066	0.084684066	1.409684066	1.009684066	-0.847815934	0.714684066	0.902184066	-1.662815934	-0.790315934	-1.982815934	-1.750315934	0.942184066	-3.010315934	-0.045315934	-0.952815934	1.349684066	0.547184066	-0.835315934	0.359684066	-1.022815934	1.429684066	1.662184066	-0.030315934	-1.002815934	-0.615315934	3.899684066	-1.322815934	-0.227815934	-0.025315934	1.372184066	1.029684066	2.529684066	-2.265315934	1.654684066	-3.337815934	0.232184066	1.317184066	-0.787815934	0.909684066	-0.645315934	1.644684066	-1.372815934	0.912184066	0.194684066	3.109684066	-0.327815934	1.812184066	-1.330315934	2.204684066	-0.592815934	0.132184066	-1.645315934	-0.722815934	-2.335315934	0.76968406599999994	-1.875315934	-1.315315934	0.764684066	-1.080315934	0.492184066	-0.677815934	1.057184066	-0.995315934	2.132184066	0.662184066	-0.952815934	-2.767815934	-1.327815934	-3.605315934	-1.295315934	-1.277815934	-0.737815934	6.772184066	3.647184066	-0.772815934	0.704684066	2.217184066	-1.900315934	2.199684066	-0.130315934	0.164684066	-1.737815934	-0.647815934	-2.592815934	0.239684066	-2.165315934	-0.390315934	1.014684066	-0.105315934	-0.982815934	-1.087815934	-0.642815934	0.889684066	-2.830315934	0.639684066	-2.240315934	-2.225315934	0.542184066	-1.787815934	0.382184066	-3.152815934	0.419684066	-1.625315934	1.442184066	-0.902815934	-0.947815934	-1.647815934	-2.052815934	-3.667815934	1.229684066	-1.025315934	0.249684066	-0.995315934	-1.762815934	0.357184066	-0.210315934	-0.675315934	-0.825315934	0.242184066	-0.480315934	-2.780315934	-0.522815934	0.394684066	0.209684066	-1.352815934	0.207184066	-0.112815934	2.512184066	0.877184066	-0.720315934	0.157184066	-2.705315934	0.047184066	0.037184066	0.147184066	1.824684066	-0.097815934	0.374684066	0.364684066	0.934684066	0.354684066	-0.242815934	-0.527815934	0.444684066	-0.522815934	0.674684066	-1.965315934	-0.612815934	-0.150315934	2.679684066	0.104684066	2.329684066	0.079684066	-0.105315934	-0.447815934	1.514684066	-2.885315934	0.857184066	0.229684066	0.704684066	0.909684066	-0.655315934	1.902184066	0.009684066	0.297184066	-0.120315934	3.642184066	-4.557815934	3.332184066	1.264684066	2.859684066	-0.417815934	0.669684066	-0.720315934	-0.275315934	-5.765315934	-4.012815934	-2.002815934	3.924684066	0.709684066	1.389684066	-2.590315934	-0.715315934	0.889684066	1.039684066	-0.945315934	-0.197815934	3.339684066	2.112184066	4.822184066	0.217184066	4.089684066	2.002184066	3.374684066	-0.207815934	2.329684066	-0.077815934	0.272184066	-2.205315934	0.147184066	2.067184066	0.457184066	-0.122815934	-0.890315934	4.097184066	-2.087815934	3.724684066	1.962184066	3.232184066	0.012184066	1.744684066	-0.330315934	1.164684066	1.082184066	0.649684066	0.494684066	0.514684066	0.427184066	-1.977815934	-1.647815934	0.434684066
gene11	0.308444472	3.530944472	1.638444472	-1.959055528	-0.049055528	1.955944472	-1.349055528	0.300944472	1.230944472	3.305944472	-0.659055528	2.643444472	0.905944472	-2.446555528	-0.636555528	-0.011555528	1.338444472	1.968444472	-0.566555528	-2.221555528	-1.024055528	-1.631555528	0.698444472	-3.894055528	-0.576555528	-4.674055528	-0.709055528	0.268444472	1.480944472	1.578444472	0.793444472	-0.834055528	-0.761555528	1.775944472	-5.274055528	0.335944472	-1.831555528	-5.519055528	-2.749055528	-9.419055528	2.358444472	-2.674055528	-0.969055528	0.768444472	0.815944472	1.148444472	0.660944472	-1.639055528	-0.891555528	-8.419055528	4.730944472	-0.189055528	4.455944472	-3.261555528	6.983444472	-0.371555528	2.190944472	-0.079055528	3.293444472	-0.386555528	4.633444472	2.748444472	-1.854055528	1.208444472	1.865944472	3.810944472	2.515944472	5.625944472	2.663444472	3.145944472	-0.194055528	1.015944472	-1.159055528	1.270944472	-1.729055528	2.493444472	-0.246555528	2.238444472	0.883444472	3.960944472	-0.986555528	3.193444472	0.993444472	-0.164055528	0.003444472	2.623444472	-2.529055528	2.318444472	3.255944472	0.233444472	3.275944472	-6.244055528	1.008444472	-3.216555528	0.588444472	0.045944472	1.118444472	-1.889055528	-0.596555528	-3.186555528	-1.501555528	-2.724055528	9.44472e-4	-4.889055528	0.253444472	0.833444472	-2.601555528	-0.391555528	-1.716555528	0.563444472	1.078444472	2.913444472	0.395944472	-3.154055528	-1.989055528	-0.979055528	-3.101555528	-1.289055528	-0.629055528	-4.219055528	-4.224055528	3.275944472	-1.036555528	1.280944472	-7.366555528	-4.689055528	-3.794055528	0.365944472	-2.756555528	-0.561555528	-1.709055528	0.385944472	1.930944472	-1.944055528	-0.726555528	2.858444472	0.153444472	-0.411555528	-7.614055528	-2.364055528	-2.529055528	-0.824055528	3.145944472	0.363444472	1.603444472	-0.311555528	3.848444472	0.290944472	1.303444472	-0.419055528	3.155944472	-2.401555528	4.885944472	-4.981555528	-0.139055528	-1.181555528	0.673444472	-2.464055528	-0.061555528	2.835944472	-0.346555528	7.698444472	-4.924055528	2.028444472	-3.259055528	1.438444472	1.115944472	-2.926555528	-3.681555528	-6.434055528	2.900944472	3.703444472	4.060944472	-2.461555528	1.388444472	-1.646555528	2.283444472	-1.539055528	-4.979055528	0.355944472	-2.429055528	0.248444472	0.723444472	-5.086555528	-3.504055528	2.640944472	-0.226555528	1.238444472	-2.989055528	-1.399055528	-0.081555528	-0.196555528	-1.984055528	0.690944472	-0.906555528	-4.434055528	-4.086555528	-1.621555528	-0.946555528	-0.966555528	-4.016555528	0.878444472	-1.279055528	0.260944472	1.545944472	0.233444472	0.980944472	-0.909055528	-0.364055528	-0.599055528	-2.099055528	0.943444472	-2.336555528	-3.119055528	2.810944472	0.490944472	7.165944472	0.175944472	0.763444472	-0.584055528	1.798444472	0.888444472	-2.941555528	1.743444472	3.660944472	-1.389055528	1.645944472	0.988444472	-0.676555528	0.148444472	2.313444472	2.653444472	3.125944472	-1.639055528	-2.804055528	-1.591555528	-5.321555528	1.768444472	-1.641555528	3.713444472	-0.589055528	5.810944472	-2.749055528	2.415944472	0.258444472	3.183444472	2.060944472	1.805944472	0.470944472	-0.719055528	1.915944472	0.520944472	-2.651555528	-5.506555528	-1.481555528	2.013444472	0.755944472	-3.404055528	-1.651555528	1.013444472	-0.846555528	1.420944472	0.418444472	0.878444472	0.815944472	0.003444472	0.848444472	1.685944472	-0.974055528	2.625944472	0.990944472	-6.924055528	2.328444472	-1.134055528	-7.386555528	0.195944472	2.595944472	2.335944472	2.213444472	0.320944472	0.383444472	2.383444472	0.783444472	0.433444472	1.605944472	-1.089055528	-7.136555528	-0.564055528	6.243444472	-1.606555528	7.555944472	0.928444472	-2.781555528	-4.546555528	4.278444472	1.078444472	-0.846555528	-3.749055528	0.283444472	-2.546555528	-1.664055528	-1.661555528	0.433444472	1.858444472	-2.216555528	5.150944472	-0.861555528	-1.024055528	-5.841555528	2.300944472	3.480944472	-2.169055528	0.053444472	-1.771555528	3.050944472	0.308444472	2.688444472	4.123444472	1.183444472	1.175944472	0.045944472	2.213444472	1.518444472	-1.241555528	2.578444472	2.773444472	-0.711555528	1.108444472	-5.286555528	1.400944472	2.248444472	-1.419055528	0.820944472	-0.574055528	2.588444472	3.020944472	-2.016555528	1.360944472	0.798444472	-1.799055528	2.080944472	2.033444472	-0.364055528	-4.134055528	2.485944472	-4.444055528	-4.341555528	-0.744055528	-4.979055528	0.523444472	-0.689055528	-0.039055528	1.420944472	3.723444472	1.078444472	2.833444472	1.430944472	-0.251555528	2.403444472	1.483444472	2.825944472	3.300944472	2.990944472	5.083444472
gene12	1.501607143	1.144107143	0.831607143	0.064107143	0.854107143	1.8391071430000001	0.354107143	3.934107143	-2.185892857	3.059107143	0.454107143	1.756607143	1.399107143	1.166607143	0.766607143	1.271607143	1.211607143	-0.748392857	0.256607143	1.571607143	3.149107143	-1.998392857	2.121607143	-2.730892857	0.756607143	-0.170892857	0.774107143	1.301607143	2.414107143	1.481607143	0.396607143	2.799107143	1.201607143	1.609107143	-1.210892857	1.5891071430000001	1.041607143	0.434107143	1.204107143	0.069107143	0.871607143	0.199107143	2.774107143	1.031607143	1.049107143	0.581607143	0.584107143	1.294107143	0.361607143	0.314107143	-1.765892857	-2.065892857	-2.470892857	-2.388392857	-4.953392857	1.501607143	-0.205892857	0.654107143	1.676607143	1.716607143	1.586607143	-0.828392857	2.229107143	-0.088392857	2.639107143	0.984107143	1.569107143	1.429107143	1.496607143	-0.870892857	2.379107143	0.919107143	0.904107143	-1.865892857	2.344107143	0.076607143	2.156607143	-1.918392857	0.716607143	0.754107143	0.486607143	2.446607143	0.716607143	1.609107143	0.086607143	-1.683392857	-4.895892857	0.971607143	0.469107143	0.236607143	-2.860892857	2.659107143	-2.808392857	-3.093392857	-4.118392857	1.179107143	1.321607143	0.844107143	-4.103392857	-1.503392857	-4.188392857	-3.170892857	-3.115892857	2.174107143	-1.873392857	1.056607143	-3.888392857	0.781607143	1.876607143	0.516607143	0.471607143	-1.933392857	2.189107143	-1.340892857	0.544107143	-3.575892857	0.041607143	-4.015892857	1.084107143	-3.705892857	0.149107143	0.599107143	-1.483392857	-1.735892857	0.146607143	-0.685892857	-0.230892857	0.539107143	1.126607143	2.381607143	1.734107143	1.329107143	1.304107143	-1.900892857	2.496607143	-1.088392857	1.236607143	1.601607143	-3.220892857	0.679107143	-0.815892857	0.719107143	-1.150892857	-1.793392857	-2.393392857	-1.408392857	-6.798392857	-2.645892857	-1.363392857	-0.265892857	-2.120892857	1.891607143	-3.860892857	0.991607143	1.884107143	1.441607143	2.016607143	1.019107143	3.331607143	0.669107143	0.266607143	0.101607143	0.739107143	-9.498392857	-1.575892857	0.241607143	0.489107143	0.166607143	2.021607143	0.559107143	1.054107143	0.226607143	1.2141071430000001	1.081607143	0.371607143	1.626607143	0.216607143	-1.325892857	0.774107143	2.629107143	-0.605892857	1.6516071430000001	0.206607143	1.076607143	1.519107143	1.004107143	1.216607143	0.851607143	1.104107143	2.134107143	-0.398392857	-0.773392857	-3.900892857	-3.605892857	-4.873392857	-3.740892857	-3.803392857	0.151607143	-4.393392857	-3.443392857	-4.033392857	-0.128392857	0.064107143	-0.805892857	2.719107143	1.216607143	2.374107143	0.234107143	-1.420892857	-3.755892857	0.804107143	-3.603392857	-2.893392857	-5.275892857	2.554107143	0.634107143	-0.070892857	-1.330892857	0.676607143	2.179107143	2.571607143	1.741607143	3.591607143	-2.323392857	0.364107143	-1.515892857	-0.370892857	1.641607143	-2.363392857	1.491607143	-1.243392857	2.776607143	0.469107143	1.514107143	1.079107143	3.081607143	-0.228392857	3.571607143	-1.468392857	-0.653392857	-3.665892857	-3.975892857	-3.055892857	-4.550892857	-4.088392857	-0.533392857	-5.525892857	0.409107143	-7.685892857	-0.645892857	-2.730892857	-5.065892857	1.471607143	0.326607143	2.331607143	-5.753392857	0.859107143	-4.170892857	1.141607143	-3.723392857	-1.583392857	-3.025892857	2.141607143	-1.308392857	0.529107143	-0.773392857	1.371607143	-0.770892857	3.219107143	-0.840892857	2.434107143	0.899107143	0.821607143	1.489107143	-3.973392857	0.119107143	0.399107143	1.959107143	-1.813392857	2.244107143	-0.803392857	2.446607143	0.546607143	1.806607143	0.189107143	1.254107143	1.486607143	3.289107143	-2.363392857	0.966607143	-4.220892857	0.491607143	-1.008392857	3.796607143	-1.038392857	0.291607143	-1.373392857	0.934107143	3.306607143	-2.003392857	3.299107143	2.231607143	1.686607143	0.791607143	1.266607143	-0.525892857	1.771607143	-2.310892857	0.601607143	-1.705892857	-1.605892857	1.914107143	1.896607143	2.271607143	2.384107143	2.251607143	2.261607143	1.856607143	-8.013392857	0.359107143	2.009107143	2.696607143	-1.538392857	0.161607143	1.251607143	-1.013392857	2.051607143	1.021607143	0.056607143	0.174107143	-0.708392857	2.584107143	-2.625892857	-0.950892857	-3.278392857	2.734107143	0.526607143	1.094107143	1.321607143	0.734107143	0.694107143	1.906607143	1.559107143	-0.790892857	0.459107143	0.799107143	1.391607143	-0.970892857	-0.765892857	-0.253392857	1.264107143	-1.545892857	0.924107143	0.526607143	0.141607143	-0.803392857	2.554107143	2.801607143	2.176607143	2.436607143	1.079107143	-0.575892857	-1.445892857	-0.383392857
gene13	0.439739238	-4.107760762	-0.670260762	0.812239238	-0.997760762	-0.912760762	-1.557760762	-0.717760762	0.922239238	-0.652760762	-0.627760762	0.704739238	2.507239238	-1.315260762	-1.545260762	0.929739238	0.399739238	0.719739238	1.724739238	-1.640260762	2.057239238	-2.470260762	-0.710260762	-3.632760762	3.164739238	1.977239238	1.422239238	1.389739238	3.002239238	1.049739238	0.874739238	1.497239238	0.209739238	0.187239238	0.297239238	1.317239238	2.529739238	4.352239238	1.182239238	-0.342760762	1.059739238	1.147239238	0.682239238	1.449739238	1.457239238	1.579739238	2.372239238	2.222239238	1.769739238	-3.347760762	-0.897760762	2.102239238	-1.332760762	-4.340260762	-1.265260762	-0.700260762	-0.627760762	1.082239238	-0.535260762	-0.285260762	-1.425260762	-2.700260762	-1.762760762	-0.580260762	1.027239238	-0.337760762	2.707239238	0.157239238	2.314739238	-1.132760762	1.577239238	2.187239238	0.122239238	1.882239238	2.052239238	-3.705260762	2.114739238	-2.830260762	1.084739238	1.672239238	1.114739238	-1.115260762	0.174739238	2.727239238	-1.785260762	-1.155260762	-2.297760762	-2.400260762	-1.702760762	1.514739238	0.747239238	0.797239238	2.439739238	1.624739238	-0.570260762	1.137239238	5.129739238	-3.327760762	-3.885260762	-1.115260762	-2.850260762	-2.012760762	-3.417760762	-2.447760762	-2.125260762	-0.415260762	-0.170260762	0.479739238	2.264739238	-0.185260762	0.679739238	-1.855260762	1.657239238	-0.582760762	-0.717760762	-3.247760762	0.649739238	-2.907760762	1.552239238	-2.977760762	-0.182760762	-1.082760762	-2.755260762	0.652239238	-0.565260762	-0.737760762	2.897239238	0.727239238	1.864739238	-2.860260762	2.202239238	-0.032760762	-3.877760762	1.357239238	1.724739238	-1.880260762	0.794739238	1.879739238	-1.002760762	1.357239238	-3.477760762	1.637239238	-0.402760762	-2.635260762	-2.285260762	-2.250260762	0.199739238	-5.057760762	0.844739238	-1.737760762	-1.672760762	1.919739238	-0.782760762	0.489739238	0.832239238	1.299739238	-0.485260762	1.967239238	0.669739238	1.207239238	0.754739238	0.499739238	0.187239238	0.049739238	-0.387760762	0.039739238	0.157239238	4.644739238	-2.030260762	2.897239238	1.392239238	2.224739238	1.302239238	0.129739238	1.709739238	3.824739238	1.044739238	-2.697760762	-0.607760762	0.887239238	-2.217760762	0.079739238	1.744739238	1.264739238	-0.032760762	0.892239238	0.644739238	1.679739238	0.432239238	2.092239238	0.419739238	-4.065260762	-1.892760762	-5.417760762	-4.515260762	-4.612760762	-1.405260762	-2.640260762	-2.785260762	-2.975260762	-2.875260762	0.969739238	2.002239238	-0.347760762	2.717239238	0.424739238	-1.457760762	-1.957760762	0.757239238	-4.827760762	1.272239238	-3.545260762	0.744739238	-2.617760762	-0.047760762	1.932239238	1.897239238	2.127239238	-1.615260762	4.547239238	-0.050260762	-0.420260762	2.149739238	-1.835260762	-1.457760762	-1.117760762	0.477239238	-0.920260762	1.244739238	-0.940260762	-1.505260762	-0.065260762	-0.762760762	-0.457760762	-7.047760762	2.509739238	2.129739238	-0.160260762	-0.750260762	-3.105260762	-3.117760762	-6.047760762	-2.157760762	-5.172760762	-1.860260762	-4.985260762	0.042239238	0.717239238	-0.177760762	0.572239238	0.477239238	-1.567760762	-1.780260762	0.044739238	1.769739238	-1.885260762	-1.482760762	-0.462760762	1.139739238	-3.045260762	0.074739238	-2.617760762	2.319739238	-1.340260762	0.157239238	-0.095260762	1.099739238	3.237239238	0.197239238	-0.052760762	-0.127760762	4.357239238	3.419739238	0.957239238	-0.925260762	1.607239238	1.947239238	-0.872760762	-1.985260762	0.392239238	1.074739238	1.564739238	0.334739238	2.964739238	-1.222760762	1.792239238	1.104739238	0.337239238	-5.995260762	-1.075260762	-2.292760762	0.289739238	0.919739238	1.424739238	0.189739238	-0.180260762	1.854739238	0.872239238	1.204739238	1.484739238	4.807239238	2.029739238	2.014739238	2.009739238	2.154739238	-1.577760762	1.929739238	0.107239238	1.419739238	-0.667760762	1.752239238	-1.997760762	-2.335260762	1.759739238	-1.157760762	-1.130260762	-0.290260762	-0.655260762	-4.335260762	3.517239238	-3.032760762	0.844739238	-0.250260762	-1.350260762	4.039739238	-0.625260762	1.159739238	-0.360260762	-1.125260762	-0.077760762	-0.490260762	1.002239238	-1.617760762	1.117239238	-1.250260762	0.812239238	0.974739238	0.022239238	2.389739238	-0.997760762	0.562239238	-0.295260762	1.587239238	3.277239238	0.627239238	2.527239238	0.879739238	-0.162760762	-0.247760762	1.854739238	0.892239238	-0.537760762	2.062239238	0.234739238	-0.090260762	-1.215260762	-0.207760762	0.539739238	0.914739238	0.584739238	0.777239238	0.922239238	-1.417760762	-0.145260762
gene14	-2.175068681	0.637431319	0.594931319	1.177431319	-2.432568681	1.062431319	-3.092568681	2.427431319	-0.862568681	2.992431319	0.137431319	2.919931319	-0.017568681	0.059931319	-0.450068681	-0.115068681	0.994931319	2.124931319	1.349931319	2.744931319	1.062431319	-5.235068681	1.184931319	-5.397568681	1.949931319	-3.017568681	2.347431319	-0.025068681	1.757431319	0.634931319	0.349931319	2.702431319	-0.275068681	2.282431319	0.772431319	-0.137568681	-0.575068681	1.277431319	0.847431319	-0.177568681	1.404931319	1.302431319	0.987431319	1.754931319	0.302431319	1.714931319	-0.412568681	-0.472568681	4.324931319	0.347431319	4.557431319	-4.002568681	3.932431319	-2.845068681	-1.380068681	1.614931319	0.797431319	-0.042568681	0.019931319	0.589931319	-1.690068681	-1.645068681	-0.507568681	0.854931319	1.602431319	3.417431319	0.302431319	4.562431319	1.399931319	1.742431319	2.062431319	6.432431319	1.117431319	-2.002568681	2.357431319	-4.150068681	1.489931319	-4.945068681	1.189931319	3.427431319	0.319931319	4.3899313190000004	0.589931319	0.402431319	0.519931319	-1.150068681	2.477431319	-1.665068681	1.472431319	1.759931319	-2.887568681	-0.437568681	-5.225068681	0.779931319	-2.815068681	0.992431319	-1.505068681	-1.002568681	-4.610068681	-2.660068681	-4.535068681	-5.307568681	-4.692568681	0.587431319	-3.540068681	-2.230068681	-5.715068681	0.194931319	0.589931319	1.049931319	-1.085068681	-3.410068681	-0.257568681	-1.437568681	-1.642568681	-5.482568681	-0.215068681	-4.952568681	-2.152568681	-4.912568681	0.212431319	0.872431319	0.189931319	1.547431319	-0.280068681	-0.332568681	0.172431319	-0.077568681	-0.180068681	2.744931319	0.657431319	-0.077568681	0.887431319	-2.387568681	4.509931319	0.804931319	1.339931319	1.284931319	0.252431319	-0.597568681	1.517431319	0.942431319	1.322431319	-0.820068681	2.079931319	-0.975068681	-0.745068681	-3.372568681	-1.550068681	-1.272568681	-0.527568681	-3.725068681	-3.877568681	-0.315068681	0.447431319	1.444931319	-2.000068681	-1.177568681	1.164931319	0.572431319	-0.390068681	0.044931319	0.322431319	1.994931319	-2.912568681	2.114931319	0.152431319	0.179931319	1.584931319	-3.207568681	1.397431319	1.179931319	0.067431319	0.044931319	1.124931319	-1.550068681	-4.660068681	0.347431319	0.157431319	0.772431319	0.047431319	0.794931319	-0.040068681	2.269931319	1.472431319	3.207431319	0.589931319	1.334931319	0.777431319	2.867431319	-0.785068681	-4.000068681	-3.347568681	-4.882568681	-2.850068681	-4.517568681	-1.270068681	-2.455068681	-2.200068681	-4.320068681	-3.430068681	-1.215068681	1.127431319	-1.232568681	1.952431319	-0.670068681	-1.442568681	0.037431319	-1.137568681	-3.212568681	-0.922568681	-4.010068681	-5.030068681	-1.142568681	0.457431319	0.337431319	-0.117568681	0.902431319	-0.410068681	2.942431319	2.134931319	-0.225068681	1.854931319	-3.990068681	-1.302568681	-2.032568681	-1.277568681	0.214931319	-1.720068681	0.114931319	0.189931319	1.409931319	-0.577568681	-0.122568681	-1.587568681	2.064931319	0.354931319	0.114931319	-1.595068681	2.869931319	-1.852568681	-3.422568681	-3.252568681	-1.367568681	-2.955068681	0.599931319	-3.462568681	1.332431319	-1.652568681	-0.172568681	0.162431319	-0.562568681	-1.065068681	0.609931319	0.324931319	-8.290068681	-0.547568681	-2.927568681	0.804931319	-3.320068681	1.779931319	-2.112568681	1.594931319	-2.435068681	0.202431319	1.759931319	1.824931319	0.132431319	1.952431319	0.442431319	3.407431319	-0.217568681	0.784931319	-0.237568681	-1.640068681	-1.697568681	-1.157568681	1.192431319	-4.180068681	0.397431319	0.769931319	0.219931319	2.219931319	0.249931319	1.442431319	1.057431319	0.909931319	1.462431319	2.829931319	0.339931319	3.862431319	1.544931319	3.954931319	-0.750068681	3.934931319	-0.235068681	3.129931319	-0.292568681	1.649931319	0.929931319	2.202431319	2.084931319	-0.220068681	3.774931319	-0.150068681	3.707431319	0.034931319	1.252431319	-1.585068681	3.967431319	1.447431319	2.527431319	0.749931319	0.964931319	0.897431319	2.204931319	1.214931319	-0.590068681	-3.280068681	0.982431319	-1.587568681	2.329931319	1.944931319	0.284931319	0.074931319	1.959931319	1.124931319	1.514931319	0.759931319	-0.212568681	4.244931319	1.597431319	2.287431319	-0.107568681	3.434931319	1.877431319	0.109931319	-0.662568681	3.324931319	-0.622568681	0.197431319	2.139931319	0.622431319	0.812431319	-1.787568681	1.622431319	-2.635068681	3.892431319	-0.912568681	3.939931319	-0.092568681	3.937431319	0.617431319	1.909931319	-0.275068681	-0.900068681	0.197431319	1.484931319	0.359931319	1.479931319	-3.997568681	-1.762568681	-0.842568681	-3.220068681
gene15	2.342363776	2.244863776	5.512363776	1.704863776	4.114863776	1.529863776	3.304863776	-0.865136224	2.764863776	2.189863776	3.034863776	1.967363776	0.739863776	1.357363776	-1.642636224	1.672363776	1.032363776	4.782363776	-1.712636224	4.042363776	-2.580136224	4.102363776	1.782363776	4.129863776	0.137363776	-0.200136224	-0.715136224	0.112363776	3.864863776	0.862363776	1.447363776	1.369863776	0.582363776	2.2698637760000002	-7.270136224	0.589863776	0.632363776	-2.745136224	-1.525136224	1.579863776	4.482363776	-1.560136224	-0.625136224	2.732363776	-0.230136224	1.452363776	0.434863776	0.494863776	0.492363776	-2.985136224	3.444863776	4.214863776	2.469863776	2.072363776	2.807363776	0.482363776	1.914863776	-1.395136224	-0.212636224	-2.612636224	-1.572636224	1.462363776	-2.510136224	1.252363776	0.119863776	3.194863776	2.849863776	5.349863776	2.507363776	3.419863776	0.749863776	0.929863776	-0.285136224	0.334863776	0.754863776	0.467363776	0.107363776	0.402363776	1.457363776	1.924863776	-1.042636224	1.087363776	-2.562636224	2.159863776	-0.412636224	1.047363776	-7.675136224	-0.377636224	1.269863776	0.687363776	2.099863776	-8.020136224	1.112363776	-5.662636224	1.142363776	-1.200136224	0.772363776	3.654863776	0.297363776	0.907363776	-2.877636224	2.139863776	-2.695136224	-0.455136224	-1.112636224	0.447363776	-1.247636224	0.022363776	-0.192636224	-0.042636224	2.262363776	3.237363776	0.649863776	-2.140136224	-2.415136224	-0.555136224	-1.957636224	-0.495136224	0.034863776	-1.615136224	-5.880136224	0.239863776	0.777363776	0.204863776	-9.202636224	-10.27513622	-6.230136224	-1.740136224	-6.142636224	-4.477636224	0.154863776	0.959863776	0.064863776	-1.150136224	-2.842636224	2.052363776	1.857363776	-6.427636224	-2.450136224	-5.120136224	-4.545136224	-2.900136224	4.239863776	0.157363776	0.037363776	1.322363776	3.452363776	2.414863776	0.587363776	-0.675136224	2.029863776	-1.257636224	2.549863776	-3.947636224	1.084863776	-1.097636224	1.747363776	-2.320136224	2.212363776	3.559863776	-0.472636224	6.342363776	-3.460136224	0.222363776	0.334863776	0.192363776	-1.470136224	-2.012636224	-1.987636224	-5.890136224	1.004863776	4.797363776	4.364863776	-0.947636224	1.252363776	-3.182636224	2.167363776	-2.075136224	-5.215136224	0.789863776	-0.685136224	-0.727636224	2.927363776	-1.912636224	-4.330136224	2.064863776	-4.882636224	1.592363776	-4.615136224	2.104863776	-0.477636224	1.127363776	0.739863776	0.804863776	0.787363776	-4.160136224	-2.092636224	0.642363776	1.997363776	-3.302636224	-0.522636224	1.562363776	-2.835136224	1.534863776	2.799863776	2.047363776	1.264863776	0.454863776	0.709863776	-1.815136224	-1.935136224	0.517363776	1.967363776	-2.295136224	0.644863776	-0.855136224	4.239863776	0.779863776	0.997363776	2.2698637760000002	0.172363776	5.762363776	-1.457636224	0.197363776	2.114863776	-1.765136224	0.859863776	0.592363776	2.017363776	-0.757636224	1.457363776	2.307363776	2.889863776	-1.835136224	3.509863776	-3.477636224	-4.067636224	0.782363776	-1.237636224	-0.202636224	1.024863776	1.864863776	-2.3551362239999998	-0.840136224	0.662363776	-0.152636224	1.234863776	1.929863776	2.284863776	-0.435136224	-0.050136224	-2.725136224	-0.447636224	-4.392636224	-0.207636224	3.247363776	-0.520136224	-1.850136224	0.322363776	1.637363776	-1.452636224	3.584863776	-0.107636224	0.592363776	-1.200136224	0.727363776	-1.057636224	1.579863776	-1.060136224	0.249863776	-0.605136224	-11.27513622	1.782363776	0.709863776	-6.772636224	-0.320136224	2.669863776	1.309863776	2.827363776	1.414863776	-0.362636224	2.407363776	-0.132636224	-1.532636224	1.999863776	-2.275136224	-9.432636224	-0.420136224	3.397363776	-2.5426362239999998	2.799863776	-1.647636224	-6.707636224	-5.352636224	1.342363776	1.802363776	-11.27513622	-2.435136224	-0.152636224	-4.702636224	-0.610136224	-1.047636224	0.977363776	-0.397636224	-2.342636224	2.984863776	1.122363776	-6.860136224	-4.747636224	1.274863776	-1.525136224	-4.055136224	0.337363776	-0.197636224	0.834863776	1.412363776	0.372363776	2.397363776	-0.132636224	-1.910136224	-3.830136224	0.827363776	0.592363776	-3.427636224	-0.557636224	1.157363776	-1.167636224	0.752363776	-7.362636224	1.004863776	3.862363776	0.914863776	3.604863776	-0.760136224	2.872363776	1.354863776	1.387363776	0.424863776	1.712363776	0.034863776	2.714863776	1.847363776	0.289863776	-2.640136224	2.729863776	-3.620136224	-3.547636224	1.899863776	-2.6051362239999998	2.267363776	-1.905136224	3.484863776	-0.665136224	2.477363776	-0.317636224	2.047363776	-2.255136224	-2.847636224	-1.262636224	0.367363776	-0.070136224	1.834863776	-1.255136224	1.537363776
gene16	0.191192906	2.023692906	-2.358807094	4.403692906	-0.146307094	-0.081307094	0.633692906	-0.056307094	2.543692906	-2.781307094	-0.536307094	-1.603807094	-4.991307094	1.836192906	3.296192906	0.411192906	-5.918807094	-4.938807094	1.376192906	-0.518807094	0.008692906	-5.198807094	-1.228807094	-5.311307094	2.806192906	1.548692906	-1.216307094	-0.668807094	1.433692906	1.461192906	0.786192906	1.338692906	-0.798807094	1.148692906	-1.401307094	0.848692906	0.631192906	0.503692906	-0.956307094	3.458692906	-1.778807094	-0.811307094	0.203692906	0.151192906	3.688692906	0.891192906	0.903692906	3.883692906	0.721192906	3.933692906	1.593692906	3.283692906	2.488692906	4.641192906	0.256192906	1.041192906	1.563692906	-3.036307094	0.696192906	1.536192906	-3.903807094	-2.328807094	1.278692906	-0.788807094	0.838692906	4.093692906	0.818692906	2.348692906	-0.533807094	1.368692906	5.838692906	5.458692906	1.133692906	-6.806307094	4.133692906	-2.523807094	2.746192906	-4.358807094	1.946192906	-7.766307094	1.316192906	5.896192906	0.226192906	3.508692906	7.036192906	-6.513807094	-16.41630709	-0.718807094	-4.641307094	-4.223807094	-6.521307094	4.048692906	-3.108807094	2.976192906	-1.548807094	-1.511307094	-3.428807094	4.723692906	1.836192906	6.266192906	1.501192906	3.918692906	1.473692906	1.003692906	3.296192906	-0.013807094	1.581192906	0.821192906	2.696192906	-0.883807094	1.381192906	-2.483807094	0.648692906	0.918692906	0.923692906	0.983692906	-1.188807094	2.103692906	1.593692906	1.303692906	-2.371307094	3.508692906	-4.903807094	-2.196307094	-2.263807094	-4.686307094	0.198692906	-0.521307094	-2.423807094	-0.288807094	-0.146307094	-5.921307094	-2.306307094	-3.181307094	0.706192906	-10.20880709	3.016192906	0.091192906	0.648692906	1.458692906	-16.41630709	1.538692906	0.108692906	1.186192906	2.626192906	2.561192906	0.251192906	1.013692906	5.086192906	4.263692906	1.908692906	1.891192906	-3.231307094	0.131192906	3.583692906	2.981192906	2.046192906	1.878692906	1.211192906	2.628692906	1.476192906	5.451192906	0.138692906	-8.168807094	2.153692906	5.101192906	3.818692906	0.366192906	4.341192906	0.458692906	-1.126307094	-16.41630709	-4.806307094	-1.008807094	1.511192906	1.106192906	2.196192906	-1.016307094	0.253692906	0.868692906	1.053692906	3.071192906	-6.543807094	0.696192906	-1.291307094	2.183692906	1.146192906	2.961192906	4.243692906	1.073692906	0.531192906	2.816192906	-0.261307094	2.613692906	-2.963807094	-0.911307094	-2.883807094	0.881192906	-5.763807094	-5.103807094	0.176192906	-0.428807094	0.313692906	1.023692906	3.158692906	-1.423807094	-3.266307094	1.043692906	-0.871307094	0.243692906	2.443692906	-0.933807094	2.326192906	-0.146307094	0.363692906	1.153692906	-6.801307094	0.778692906	0.856192906	2.078692906	0.201192906	0.431192906	2.001192906	-6.113807094	-5.106307094	-2.606307094	-0.421307094	-2.228807094	-5.123807094	-0.098807094	-8.063807094	0.616192906	-2.291307094	1.993692906	4.188692906	3.751192906	0.861192906	2.951192906	-0.548807094	-2.023807094	1.863692906	-7.576307094	1.973692906	-6.201307094	2.041192906	-1.113807094	0.213692906	0.898692906	-15.41630709	-1.086307094	-9.621307094	-4.666307094	-1.368807094	-2.103807094	1.651192906	-5.723807094	0.408692906	-0.161307094	1.091192906	-1.593807094	-1.453807094	-0.816307094	-0.098807094	-2.898807094	2.488692906	-7.313807094	4.411192906	-2.731307094	3.308692906	-2.841307094	2.543692906	-1.581307094	-4.208807094	-0.791307094	-16.41630709	3.818692906	-14.49130709	1.918692906	-7.723807094	1.953692906	-5.333807094	-0.943807094	-3.233807094	1.126192906	-0.441307094	0.993692906	0.106192906	1.248692906	-11.23380709	-2.993807094	-7.911307094	-1.178807094	3.041192906	3.476192906	8.181192906	1.131192906	0.096192906	1.783692906	1.536192906	-7.233807094	-0.081307094	1.331192906	1.346192906	6.121192906	2.646192906	3.013692906	1.621192906	6.108692906	0.581192906	1.973692906	-16.41630709	0.683692906	0.586192906	4.261192906	-1.766307094	-0.778807094	1.981192906	-1.693807094	-16.41630709	-4.371307094	0.338692906	0.866192906	-0.478807094	-0.708807094	-2.828807094	-5.263807094	2.871192906	-3.748807094	1.316192906	1.273692906	0.211192906	2.223692906	-1.746307094	3.678692906	1.931192906	0.453692906	4.846192906	-6.286307094	2.541192906	3.553692906	-0.606307094	2.906192906	0.678692906	4.448692906	-1.361307094	-0.99130709400000006	1.491192906	5.028692906	-0.666307094	1.276192906	0.343692906	5.763692906	-1.646307094	-2.503807094	-0.268807094	-8.593807094	-0.61630709400000006	3.641192906	2.676192906	3.016192906	1.378692906	-0.146307094	-4.566307094	-8.583807094
gene17	1.632108384	-0.045391616	3.682108384	-1.645391616	1.034608384	0.599608384	2.114608384	-1.685391616	-0.185391616	-0.010391616	1.694608384	2.237108384	0.739608384	-0.902891616	2.157108384	-0.237891616	1.462108384	3.842108384	-0.052891616	2.752108384	-3.780391616	3.352108384	-1.537891616	2.789608384	-0.802891616	-3.830391616	-0.915391616	-0.127891616	1.804608384	0.612108384	0.317108384	-0.210391616	-1.587891616	3.709608384	-2.030391616	0.639608384	-0.797891616	-1.905391616	-1.565391616	0.049608384	2.702108384	-2.310391616	-0.015391616	0.282108384	0.969608384	0.792108384	0.384608384	-0.715391616	0.222108384	-8.692891616	3.554608384	-0.305391616	4.269608384	-3.627891616	5.147108384	-1.477891616	1.684608384	-0.965391616	1.497108384	-3.252891616	5.577108384	1.932108384	-3.760391616	1.352108384	-0.840391616	4.004608384	3.369608384	5.839608384	1.987108384	4.769608384	1.959608384	3.059608384	-0.335391616	-0.475391616	-3.395391616	1.907108384	0.787108384	-1.407891616	-0.122891616	2.824608384	0.467108384	3.197108384	-3.492891616	-0.150391616	-0.182891616	1.557108384	-3.625391616	0.892108384	1.419608384	1.007108384	1.239608384	-4.590391616	0.612108384	-2.462891616	-1.127891616	-0.610391616	1.252108384	-0.945391616	-5.612891616	-4.102891616	-5.507891616	-3.940391616	-4.915391616	0.014608384	-3.342891616	0.617108384	-6.817891616	0.352108384	1.257108384	0.657108384	2.432108384	2.207108384	-0.040391616	-3.350391616	-2.155391616	-4.895391616	-1.287891616	-4.595391616	-1.305391616	-5.425391616	-2.700391616	0.069608384	1.297108384	-0.495391616	-1.302891616	-3.585391616	-1.660391616	2.289608384	-2.202891616	-2.267891616	-0.315391616	-2.270391616	0.324608384	-2.530391616	0.427108384	4.762108384	1.037108384	-2.227891616	-2.560391616	-1.450391616	1.204608384	-0.710391616	2.109608384	-1.632891616	-1.182891616	-0.597891616	0.002108384	-1.775391616	-1.752891616	0.034608384	-0.640391616	-4.067891616	0.299608384	-2.677891616	0.274608384	0.292108384	1.397108384	-1.860391616	1.022108384	0.859608384	-1.292891616	5.642108384	-2.200391616	0.032108384	-4.025391616	-0.377891616	0.409608384	-3.482891616	1.382108384	-2.650391616	1.974608384	2.857108384	3.324608384	-0.557891616	1.522108384	-1.832891616	2.347108384	0.974608384	-1.355391616	-0.100391616	-0.005391616	0.592108384	1.047108384	-1.652891616	-4.630391616	3.284608384	-0.292891616	1.792108384	-3.515391616	1.364608384	0.122108384	-2.522891616	-2.040391616	-3.095391616	-2.882891616	-5.400391616	-3.792891616	-1.977891616	-2.672891616	-2.812891616	-6.182891616	1.132108384	1.734608384	-0.125391616	0.749608384	0.697108384	0.954608384	-2.055391616	0.069608384	-4.345391616	-2.495391616	-3.302891616	-3.472891616	-6.435391616	3.024608384	-3.415391616	3.879608384	1.089608384	0.687108384	-1.820391616	0.092108384	1.652108384	-0.627891616	1.577108384	1.124608384	0.854608384	1.829608384	-0.117891616	-0.272891616	-0.887891616	1.597108384	2.627108384	2.809608384	-3.285391616	1.859608384	-0.577891616	-3.347891616	1.162108384	-2.747891616	2.777108384	-3.345391616	4.874608384	-5.225391616	1.769608384	-2.627891616	1.767108384	-0.065391616	0.189608384	0.284608384	-0.115391616	0.679608384	1.404608384	-0.807891616	-1.662891616	-1.007891616	-1.482891616	0.709608384	-4.530391616	-0.767891616	-4.022891616	0.387108384	-1.985391616	-2.317891616	0.912108384	-2.100391616	-0.122891616	-0.637891616	1.889608384	-1.790391616	2.549608384	1.894608384	-1.950391616	1.062108384	-2.820391616	-7.692891616	1.779608384	2.969608384	0.419608384	1.867108384	0.264608384	0.337108384	1.927108384	1.587108384	2.757108384	4.089608384	0.034608384	-0.452891616	-1.670391616	6.517108384	-0.142891616	6.379608384	-0.407891616	3.492108384	-2.132891616	4.172108384	0.642108384	1.467108384	-0.715391616	1.037108384	-1.162891616	0.049608384	-0.997891616	-0.102891616	1.052108384	-2.322891616	4.824608384	0.762108384	1.799608384	-3.127891616	2.034608384	-2.275391616	0.414608384	-0.642891616	-0.497891616	2.234608384	-0.847891616	1.972108384	3.887108384	1.597108384	-1.080391616	0.949608384	0.917108384	2.992108384	-0.577891616	2.492108384	2.627108384	0.252108384	-0.527891616	-3.132891616	1.604608384	4.352108384	-1.705391616	5.264608384	0.279608384	8.092108384	1.864608384	1.597108384	0.594608384	1.762108384	-3.005391616	-0.325391616	1.857108384	-1.150391616	-2.190391616	1.309608384	-0.100391616	-3.447891616	4.949608384	-1.135391616	5.737108384	-0.635391616	4.014608384	0.684608384	2.127108384	-0.467891616	2.097108384	1.074608384	-3.017891616	0.807108384	-0.122891616	2.109608384	0.534608384	2.504608384	3.377108384
gene18	1.030016704	-0.067483296	-0.299983296	-0.637483296	-5.0374832960000004	-1.092483296	-2.267483296	1.622516704	1.402516704	-0.072483296	1.142516704	0.205016704	1.157516704	-0.134983296	5.475016704	0.700016704	1.610016704	2.790016704	4.685016704	-2.459983296	0.987516704	-5.979983296	-1.719983296	-5.332483296	0.515016704	4.837516704	0.022516704	-1.069983296	5.082516704	0.520016704	-0.604983296	3.577516704	4.270016704	4.577516704	0.027516704	0.767516704	-2.619983296	-0.067483296	-0.137483296	2.177516704	3.920016704	5.187516704	0.402516704	2.880016704	0.417516704	-0.429983296	1.092516704	2.462516704	1.280016704	2.392516704	-1.387483296	0.342516704	-2.122483296	-2.989983296	-1.044983296	3.170016704	-1.557483296	0.922516704	0.295016704	-1.264983296	-2.974983296	0.200016704	0.897516704	-0.569983296	5.257516704	-1.117483296	1.197516704	0.627516704	-1.014983296	-3.612483296	3.837516704	3.367516704	-0.837483296	-3.437483296	-1.937483296	-0.114983296	-0.224983296	-1.759983296	2.015016704	-1.897483296	-0.634983296	-2.384983296	3.435016704	5.597516704	-1.944983296	-1.914983296	-1.037483296	1.620016704	-4.822483296	-1.574983296	-2.232483296	7.907516704	-1.429983296	6.675016704	-2.049983296	0.157516704	-9.554983296	-6.507483296	-2.804983296	1.425016704	-4.879983296	-3.122483296	-3.557483296	-0.937483296	-3.244983296	-1.554983296	-0.759983296	2.680016704	0.735016704	0.915016704	-0.809983296	-2.284983296	1.467516704	-1.252483296	1.672516704	-5.7874832960000004	-1.379983296	-3.457483296	0.072516704	-3.347483296	0.207516704	-0.072483296	-4.344983296	-3.207483296	0.205016704	-4.0374832960000004	5.597516704	-0.872483296	3.065016704	0.740016704	-0.657483296	-0.742483296	-3.247483296	-3.082483296	0.735016704	-5.639983296	1.425016704	0.970016704	6.337516704	4.247516704	-2.717483296	-1.632483296	0.337516704	-6.124983296	-2.534983296	-2.369983296	-2.379983296	-8.047483296	1.125016704	-1.957483296	-2.942483296	2.140016704	-1.662483296	1.660016704	-1.387483296	2.360016704	-3.274983296	2.047516704	-0.659983296	2.067516704	-0.074983296	1.820016704	0.827516704	-0.279983296	-2.247483296	0.490016704	0.647516704	-0.714983296	0.170016704	-0.742483296	0.702516704	0.645016704	-0.297483296	-2.559983296	2.100016704	-4.604983296	-2.824983296	-3.317483296	2.212516704	1.407516704	-0.757483296	1.040016704	-0.924983296	1.645016704	-0.702483296	2.082516704	0.495016704	5.450016704	3.172516704	-1.397483296	2.520016704	-2.944983296	-1.362483296	-7.677483296	-4.094983296	-2.062483296	-3.184983296	1.710016704	-3.724983296	-4.454983296	3.295016704	-1.729983296	8.252516704	-1.977483296	3.247516704	0.035016704	-1.247483296	0.472516704	-3.802483296	-4.827483296	1.012516704	-4.644983296	0.525016704	-0.957483296	-2.547483296	1.922516704	1.847516704	-1.042483296	1.945016704	-2.862483296	-2.159983296	0.230016704	0.240016704	0.435016704	0.012516704	0.902516704	-1.792483296	-0.389983296	5.235016704	0.710016704	-1.244983296	-0.344983296	-1.952483296	-0.307483296	1.147516704	8.700016704	1.140016704	2.410016704	-0.279983296	-2.104983296	0.182516704	-5.767483296	0.762516704	-5.922483296	-0.989983296	-8.554983296	-0.227483296	1.127516704	-1.597483296	-0.007483296	5.917516704	-2.167483296	-1.509983296	-1.294983296	2.460016704	-2.454983296	1.997516704	-1.122483296	0.170016704	-2.264983296	-1.124983296	-3.207483296	3.050016704	1.310016704	3.397516704	-2.584983296	2.470016704	0.977516704	-1.182483296	-1.652483296	6.852516704	3.507516704	1.810016704	2.427516704	-4.4749832960000004	0.587516704	-5.072483296	1.577516704	-5.814983296	1.952516704	-5.734983296	-0.714983296	1.145016704	5.575016704	-2.122483296	3.192516704	1.395016704	5.517516704	-9.554983296	-6.124983296	-7.312483296	4.970016704	3.250016704	6.845016704	-0.769983296	0.060016704	2.545016704	1.632516704	-2.044983296	0.485016704	-1.392483296	2.120016704	2.545016704	0.290016704	1.985016704	-0.377483296	0.680016704	-2.102483296	5.100016704	-4.467483296	1.462516704	4.702516704	3.285016704	-1.539983296	-2.767483296	1.550016704	-0.589983296	0.335016704	-9.554983296	0.767516704	1.257516704	5.315016704	-4.619983296	6.250016704	-2.639983296	1.315016704	-1.679983296	0.990016704	2.515016704	3.782516704	-0.949983296	1.502516704	-3.747483296	3.947516704	-2.939983296	0.862516704	3.585016704	-2.627483296	3.780016704	1.112516704	1.772516704	0.765016704	2.917516704	6.327516704	1.247516704	-0.362483296	4.250016704	-0.692483296	1.652516704	3.065016704	4.382516704	-4.577483296	2.352516704	-1.044983296	0.140016704	-1.684983296	1.942516704	-0.399983296	-1.234983296	2.175016704	0.147516704	-2.967483296	-5.577483296	-4.544983296
gene19	-13.78551063	-2.588010631	-6.690510631	-13.78551063	4.181989369	5.546989369	5.701989369	5.801989369	1.431989369	-6.523010631	1.381989369	-13.78551063	2.476989369	-1.155510631	-5.875510631	1.789489369	22.81948937	5.199489369	2.964489369	-6.030510631	-13.78551063	3.799489369	-2.710510631	2.316989369	-11.07551063	-6.343010631	-7.598010631	0.079489369	-0.688010631	-0.950510631	5.734489369	-1.783010631	6.139489369	-13.78551063	0.416989369	-2.033010631	2.689489369	-1.498010631	-5.988010631	5.686989369	5.339489369	-5.393010631	-1.018010631	-0.510510631	2.446989369	-4.290510631	0.251989369	1.701989369	-8.630510631	1.861989369	6.341989369	-13.78551063	2.376989369	-13.78551063	7.454489369	-13.78551063	4.661989369	-13.78551063	0.014489369	-2.565510631	-13.78551063	5.279489369	-13.78551063	1.199489369	-13.78551063	-1.138010631	-5.343010631	-5.473010631	-5.265510631	5.916989369	6.976989369	1.136989369	-9.128010631	5.271989369	-3.098010631	4.734489369	-5.195510631	4.659489369	-1.195510631	-4.268010631	-6.585510631	-13.78551063	-7.435510631	5.896989369	-13.78551063	4.814489369	-4.558010631	6.949489369	2.746989369	-7.485510631	5.306989369	-1.813010631	4.029489369	-3.975510631	2.399489369	-7.073010631	5.019489369	6.611989369	-2.045510631	4.644489369	5.929489369	-1.903010631	-0.048010631	-10.05801063	7.114489369	-5.785510631	0.019489369	1.449489369	-2.565510631	2.394489369	0.379489369	5.664489369	3.276989369	1.916989369	-2.058010631	-3.788010631	-1.510510631	-3.038010631	-7.528010631	-10.38801063	-0.583010631	-0.043010631	-5.615510631	0.611989369	2.624489369	-3.888010631	0.646989369	-13.78551063	-5.235510631	-3.290510631	-0.588010631	-13.78551063	-13.78551063	-1.473010631	-5.995510631	3.709489369	-4.835510631	1.189489369	-5.113010631	-3.933010631	-1.258010631	0.126989369	4.496989369	5.604489369	0.694489369	-7.030510631	4.759489369	2.911989369	2.814489369	4.411989369	-13.78551063	2.759489369	7.916989369	-13.78551063	-13.78551063	-6.520510631	-12.78551063	2.716989369	0.339489369	1.186989369	-13.78551063	-13.78551063	-0.393010631	2.379489369	1.591989369	-13.78551063	-1.943010631	3.104489369	-13.78551063	-0.613010631	-2.038010631	-10.73551063	8.371989369	-13.78551063	-0.390510631	-1.415510631	2.774489369	-13.78551063	-0.978010631	-13.78551063	-13.78551063	-13.78551063	-13.78551063	-1.415510631	-2.233010631	4.731989369	-13.78551063	3.629489369	2.981989369	3.731989369	-2.810510631	-13.78551063	-3.743010631	-7.438010631	-5.375510631	-1.873010631	-5.585510631	-1.080510631	-3.355510631	-13.78551063	1.054489369	1.459489369	4.641989369	5.591989369	6.526989369	2.554489369	2.461989369	2.931989369	-0.063010631	-1.888010631	-5.678010631	-9.305510631	-7.055510631	-5.318010631	-5.998010631	-13.78551063	6.476989369	-13.78551063	-2.845510631	-5.053010631	-2.280510631	-13.78551063	2.899489369	4.204489369	4.731989369	-6.738010631	2.796989369	0.899489369	5.364489369	0.139489369	4.614489369	4.324489369	1.776989369	-3.598010631	-8.153010631	-13.78551063	-13.78551063	-13.78551063	-5.620510631	-0.765510631	0.191989369	0.991989369	6.391989369	1.446989369	-3.900510631	-3.105510631	1.541989369	5.356989369	-10.45801063	-4.068010631	5.176989369	4.911989369	4.209489369	-8.735510631	4.179489369	2.684489369	-5.233010631	-8.153010631	-6.600510631	0.374489369	-6.155510631	-5.298010631	-3.150510631	3.849489369	0.296989369	3.994489369	-13.78551063	-2.443010631	-13.78551063	2.886989369	3.791989369	-13.78551063	-0.250510631	-3.723010631	2.444489369	-13.78551063	5.676989369	-0.943010631	4.304489369	-13.78551063	2.424489369	-6.425510631	-6.455510631	-13.78551063	3.316989369	-13.78551063	-13.78551063	-4.533010631	8.924489369	3.114489369	9.026989369	3.689489369	-13.78551063	-2.105510631	3.069489369	4.729489369	0.774489369	-13.78551063	-13.78551063	-0.965510631	-0.423010631	-1.340510631	-2.895510631	-13.78551063	-13.78551063	1.681989369	-5.330510631	3.616989369	0.989489369	-2.668010631	-0.478010631	-3.648010631	-13.78551063	-6.070510631	-13.78551063	-13.78551063	-0.820510631	-13.78551063	-0.445510631	-13.78551063	-13.78551063	-13.78551063	2.699489369	3.199489369	-0.980510631	-13.78551063	-4.030510631	-13.78551063	-13.78551063	-2.668010631	8.349489369	-1.798010631	7.181989369	-2.563010631	2.699489369	2.141989369	7.124489369	0.021989369	-3.910510631	-7.258010631	2.651989369	-7.005510631	-1.483010631	5.036989369	-4.173010631	-3.053010631	1.359489369	-0.783010631	-6.468010631	2.504489369	-13.78551063	-2.848010631	4.631989369	-13.78551063	-13.78551063	4.034489369	0.401989369	-4.320510631	-7.625510631	-2.495510631	-4.703010631	8.041989369	5.071989369	5.994489369
gene21	1.07818027	0.64068027	0.03818027	0.12068027	2.75068027	1.01568027	-0.11931973	2.28068027	-0.00931973	2.76568027	0.52068027	2.39318027	1.92568027	1.12318027	-0.52681973	0.50818027	1.84818027	-1.09181973	2.22318027	0.99818027	1.87568027	3.49818027	-1.53181973	-0.42431973	0.00318027	-0.80431973	0.64068027	2.10818027	1.47068027	1.44818027	-0.05681973	0.59568027	2.74818027	1.54568027	-2.27431973	1.45568027	-2.34181973	0.86068027	-0.07931973	-1.90431973	-0.52181973	1.43568027	0.55068027	1.82818027	1.11568027	-0.35181973	1.73068027	0.24068027	4.13818027	-1.75931973	4.44068027	2.18068027	4.15568027	-3.31181973	-0.78681973	1.30818027	1.41068027	1.00068027	0.62318027	1.62318027	2.05318027	-5.27181973	-1.49431973	0.90818027	1.34568027	5.78068027	3.47568027	4.91568027	1.57318027	1.74568027	-0.58431973	7.11568027	1.88068027	-1.57931973	1.90068027	0.46318027	-0.17681973	-4.64181973	2.17318027	2.05068027	0.15318027	3.00318027	-0.14681973	0.01568027	2.58318027	-2.86681973	-4.63931973	1.33818027	0.08568027	-0.27681973	-4.86431973	3.72568027	-4.21181973	-5.87681973	-4.31181973	0.69568027	-1.30181973	-1.25931973	-5.66681973	-2.26681973	-3.07181973	-3.03431973	-3.95931973	0.80068027	-3.05681973	-0.41681973	-3.81181973	1.61818027	0.07318027	-0.39681973	-1.18181973	-0.00681973	1.16568027	-1.23431973	1.72068027	-5.08931973	0.83818027	-4.74931973	-1.24931973	-3.61931973	1.09568027	0.43568027	1.18318027	0.05068027	-0.89681973	-4.17931973	3.93568027	-0.16431973	-1.25681973	-0.37181973	0.29068027	-1.13431973	-0.91931973	-1.79431973	3.45318027	-0.79181973	1.88318027	0.82818027	-6.39431973	-0.73431973	0.83068027	1.13568027	1.50568027	-0.50681973	3.54318027	-0.93181973	-2.87181973	-0.81931973	-3.79681973	-1.93931973	0.29568027	-3.15181973	-6.21431973	0.59818027	0.91068027	1.40818027	-0.37681973	-0.63431973	1.64818027	1.95568027	0.94318027	-3.77181973	0.62568027	-4.64181973	-1.33931973	2.29818027	0.25568027	5.37318027	-0.38181973	-5.63431973	-0.43931973	-2.44681973	-0.44931973	2.17818027	-0.59181973	-3.96681973	1.10318027	8.14068027	-0.06931973	0.85568027	0.82068027	2.03818027	-0.02681973	4.77318027	-0.38431973	-1.44931973	-0.52681973	-3.04181973	-0.60931973	1.19068027	-1.13181973	-3.95681973	-2.67431973	-4.09931973	-1.22681973	-3.19431973	-1.56681973	-3.00181973	-1.41681973	-14.72931973	-8.43681973	0.28818027	-1.25931973	-2.14931973	0.28568027	0.74318027	-3.01931973	-0.59931973	-0.35431973	-1.30931973	0.81068027	-3.04681973	-3.19681973	-1.93931973	1.43068027	1.95068027	-2.32431973	0.58568027	0.96318027	3.37568027	3.20818027	0.34818027	2.31818027	-14.72931973	0.23068027	-5.88931973	2.71568027	1.09818027	-5.06681973	1.00818027	-1.02681973	1.90318027	-14.72931973	0.58068027	-0.68431973	-0.14181973	-2.75181973	0.85818027	-0.88181973	3.38318027	-1.95931973	-1.76931973	-3.60931973	1.38568027	-3.31181973	0.71318027	-6.20931973	1.15568027	-9.36931973	0.31068027	-14.72931973	-13.72931973	-2.70181973	-1.58681973	0.93818027	-5.79681973	1.38568027	-2.40431973	0.99818027	-2.97681973	2.44318027	-1.16931973	2.12818027	-1.64181973	-0.36431973	-2.50681973	1.63818027	-2.74431973	3.31568027	1.45568027	4.39068027	0.42568027	0.38818027	-0.97431973	-6.45681973	1.13568027	-6.30431973	4.78568027	-6.49681973	0.74068027	-0.33681973	2.56318027	-0.25681973	-0.84681973	2.09568027	3.52068027	-0.78681973	0.81568027	2.88318027	-0.88681973	0.94568027	-1.57181973	2.09818027	2.24318027	4.48818027	1.26818027	0.93318027	2.59068027	-0.03681973	-7.20681973	-3.36431973	1.03818027	-1.03681973	3.09818027	2.28318027	3.54068027	0.94818027	-2.80431973	1.46818027	2.26068027	0.45068027	2.82068027	2.84318027	-0.49181973	1.09068027	2.32818027	0.33818027	1.47318027	-14.72931973	-1.53431973	3.65568027	3.27318027	1.75818027	0.11818027	2.76818027	0.76318027	0.28818027	1.08818027	1.14318027	3.16068027	3.95818027	0.51068027	2.38068027	-1.60431973	2.84818027	1.16068027	5.54318027	0.56068027	2.33818027	-0.33931973	1.14068027	4.13318027	1.81568027	-2.74431973	0.83568027	-3.43431973	-0.90181973	3.70568027	-5.27931973	4.00318027	-0.75931973	4.31068027	1.75068027	4.37318027	2.38818027	-0.48681973	0.09068027	0.05818027	5.33318027	1.31318027	-0.56431973	-4.39931973	-2.72931973	-3.58681973
gene22	0.596277473	-0.941222527	-1.593722527	0.268777473	-3.051222527	0.833777473	-1.871222527	2.258777473	-0.971222527	2.073777473	-1.621222527	1.341277473	0.783777473	-0.348722527	-0.038722527	0.586277473	1.306277473	0.306277473	1.981277473	-2.173722527	1.873777473	-3.813722527	0.336277473	-3.936222527	1.181277473	0.043777473	1.478777473	1.986277473	1.748777473	1.446277473	0.741277473	2.663777473	-0.073722527	1.503777473	-2.116222527	1.713777473	1.186277473	-0.451222527	0.458777473	0.393777473	1.416277473	0.84377747299999994	1.798777473	1.206277473	1.363777473	1.446277473	1.248777473	0.498777473	1.836277473	-0.361222527	-1.101222527	-1.511222527	-0.726222527	-2.283722527	-3.138722527	1.676277473	-1.381222527	0.618777473	1.021277473	1.331277473	3.011277473	-0.633722527	0.193777473	-0.303722527	1.413777473	0.288777473	2.233777473	-0.016222527	1.031277473	-1.146222527	1.593777473	1.473777473	0.928777473	0.588777473	1.228777473	-0.568722527	0.741277473	-0.553722527	0.591277473	2.218777473	-0.038722527	2.761277473	0.131277473	1.683777473	1.511277473	-0.008722527	-2.071222527	0.206277473	1.363777473	0.441277473	-1.946222527	1.093777473	-1.713722527	-2.018722527	-3.013722527	0.933777473	0.346277473	-0.611222527	-4.368722527	-0.708722527	-3.123722527	-2.426222527	-2.941222527	-1.831222527	-1.328722527	0.221277473	-0.963722527	1.006277473	1.011277473	-0.068722527	0.876277473	-1.108722527	1.983777473	-1.266222527	-0.021222527	-3.501222527	0.036277473	-3.231222527	1.518777473	-3.391222527	-1.046222527	1.683777473	-2.448722527	0.038777473	-1.698722527	-0.851222527	-1.376222527	0.953777473	-1.278722527	1.056277473	0.578777473	1.443777473	1.218777473	-2.496222527	2.661277473	0.396277473	1.891277473	-0.113722527	-2.596222527	-0.426222527	-1.611222527	1.243777473	-1.026222527	-3.668722527	-1.218722527	-3.133722527	-2.253722527	-4.981222527	0.201277473	-1.831222527	-0.006222527	0.636277473	-0.436222527	0.666277473	0.928777473	1.406277473	1.351277473	0.143777473	0.886277473	1.383777473	0.871277473	1.366277473	1.783777473	-4.543722527	-1.021222527	-0.343722527	1.333777473	0.931277473	-2.723722527	-1.286222527	0.948777473	0.051277473	0.688777473	0.966277473	1.796277473	0.711277473	-1.038722527	-0.211222527	0.108777473	1.133777473	-0.361222527	1.396277473	-0.828722527	1.301277473	-0.886222527	1.208777473	1.121277473	1.516277473	-0.681222527	0.688777473	-0.093722527	-1.308722527	-3.036222527	-3.911222527	-3.218722527	-3.876222527	-3.208722527	-1.983722527	-2.318722527	-2.268722527	-2.118722527	0.576277473	0.068777473	1.228777473	3.453777473	0.301277473	2.328777473	-1.201222527	0.533777473	-3.721222527	1.078777473	-3.648722527	-0.96872252700000006	-3.491222527	-0.331222527	-0.421222527	-1.136222527	-0.316222527	0.971277473	2.553777473	1.116277473	2.136277473	1.686277473	-0.288722527	-0.431222527	-1.551222527	0.653777473	1.736277473	1.301277473	1.086277473	1.401277473	2.441277473	0.083777473	1.388777473	6.713777473	2.076277473	-1.583722527	1.436277473	-0.053722527	-1.468722527	-2.831222527	-6.571222527	-2.411222527	-5.766222527	-3.603722527	-3.778722527	-1.301222527	1.603777473	-5.191222527	0.478777473	-1.296222527	-0.551222527	0.576277473	-0.308722527	1.816277473	-3.308722527	0.273777473	-3.276222527	1.776277473	-3.548722527	1.431277473	-3.291222527	1.626277473	-2.443722527	0.333777473	-0.058722527	1.486277473	-1.026222527	1.563777473	-0.716222527	2.768777473	-0.346222527	1.736277473	0.773777473	-4.038722527	0.963777473	1.043777473	1.953777473	-1.008722527	1.248777473	-0.298722527	1.171277473	0.261277473	1.041277473	1.073777473	1.848777473	-0.628722527	1.903777473	-3.628722527	0.371277473	-2.466222527	-1.483722527	-1.203722527	2.571277473	0.016277473	1.556277473	0.701277473	1.448777473	2.361277473	-2.718722527	1.543777473	1.796277473	1.481277473	2.136277473	1.581277473	-0.001222527	2.126277473	-1.616222527	-0.203722527	-1.951222527	-0.371222527	2.218777473	1.011277473	2.586277473	1.758777473	0.966277473	2.556277473	1.371277473	-2.958722527	0.113777473	-0.176222527	1.791277473	-0.873722527	-1.983722527	2.166277473	-0.268722527	1.746277473	1.796277473	0.571277473	0.298777473	0.096277473	2.578777473	-0.901222527	0.163777473	-1.633722527	3.438777473	-0.438722527	0.138777473	1.466277473	0.96877747299999994	1.598777473	1.531277473	2.413777473	-0.366222527	2.543777473	-0.496222527	1.076277473	0.663777473	-1.121222527	1.421277473	0.328777473	-0.131222527	0.738777473	2.001277473	0.456277473	1.201277473	1.918777473	1.156277473	1.691277473	2.151277473	-3.426222527	-1.131222527	-0.591222527	0.301277473
gene23	-4.093006296	0.419493704	1.996993704	3.339493704	2.379493704	0.284493704	2.149493704	2.379493704	1.659493704	1.324493704	1.019493704	2.311993704	0.504493704	2.501993704	1.051993704	1.406993704	-1.733006296	-2.303006296	-5.408006296	1.196993704	1.784493704	0.516993704	0.736993704	-11.6155063	3.171993704	2.364493704	3.949493704	2.806993704	2.609493704	1.736993704	0.651993704	2.644493704	2.666993704	3.054493704	-1.625506296	1.834493704	1.166993704	-0.580506296	0.729493704	2.464493704	2.976993704	-5.215506296	2.589493704	3.296993704	1.714493704	4.266993704	-5.06296e-4	2.019493704	2.306993704	4.289493704	3.539493704	-1.390506296	3.734493704	1.506993704	-5.968006296	0.336993704	1.449493704	-0.650506296	1.171993704	-2.048006296	-15.3130063	-14.3130063	-0.065506296	-0.393006296	0.774493704	3.109493704	-0.145506296	3.544493704	-0.218006296	-1.345506296	3.784493704	5.524493704	2.009493704	-2.590506296	1.329493704	-9.128006296	3.461993704	-5.213006296	2.381993704	1.749493704	0.471993704	0.991993704	2.731993704	2.904493704	-3.118006296	-2.488006296	-15.3130063	-0.963006296	1.544493704	0.111993704	-5.115506296	1.014493704	-9.723006296	-6.108006296	-15.3130063	3.664493704	-4.653006296	5.109493704	2.361993704	5.351993704	-1.813006296	-0.605506296	-2.310506296	1.659493704	-3.748006296	-0.208006296	-3.753006296	0.166993704	-0.178006296	-0.118006296	-1.513006296	-7.098006296	3.604493704	1.834493704	0.649493704	-0.260506296	-0.983006296	1.469493704	0.689493704	2.259493704	-0.885506296	1.014493704	-2.208006296	-1.370506296	2.831993704	-0.080506296	-6.035506296	1.724493704	0.451993704	-3.433006296	1.829493704	0.824493704	-1.820506296	1.634493704	-0.638006296	0.426993704	3.101993704	-3.043006296	-0.005506296	2.204493704	-15.3130063	0.784493704	2.214493704	0.211993704	2.831993704	1.546993704	-1.203006296	-2.470506296	0.071993704	2.069493704	1.634493704	-5.163006296	-2.945506296	0.456993704	2.269493704	1.626993704	-2.268006296	-0.445506296	-0.473006296	4.514493704	-0.588006296	-7.543006296	-0.515506296	-5.313006296	2.819493704	2.776993704	1.184493704	0.091993704	4.116993704	2.374493704	1.399493704	-2.498006296	-1.940506296	-1.583006296	2.716993704	-1.738006296	-5.988006296	-2.810506296	0.319493704	2.974493704	-2.660506296	1.936993704	-7.348006296	2.381993704	-1.595506296	-2.120506296	0.931993704	3.436993704	1.889493704	3.269493704	-1.813006296	-3.448006296	1.484493704	2.039493704	2.001993704	1.514493704	-0.428006296	3.146993704	-1.998006296	0.731993704	-0.458006296	-0.263006296	-0.050506296	2.659493704	1.474493704	-1.078006296	2.359493704	1.339493704	-2.215506296	0.699493704	-0.440506296	-1.398006296	-0.718006296	0.149493704	-1.560506296	-1.280506296	-1.065506296	0.924493704	-0.658006296	1.344493704	1.446993704	4.626993704	0.416993704	-7.218006296	-2.270506296	-1.880506296	-2.875506296	0.406993704	-2.308006296	1.256993704	-0.878006296	3.321993704	-4.475506296	2.959493704	-15.3130063	3.946993704	1.776993704	1.636993704	1.256993704	0.741993704	1.129493704	-9.440506296	3.019493704	-11.8055063	-0.503006296	0.171993704	-4.660506296	0.394493704	-7.800506296	-0.530506296	-6.445506296	-0.250506296	1.636993704	-3.178006296	3.486993704	-0.508006296	1.824493704	-0.025506296	1.196993704	1.221993704	0.521993704	1.549493704	2.036993704	1.296993704	-0.515506296	-4.228006296	0.006993704	0.364493704	0.964493704	-3.345506296	1.889493704	-1.465506296	-1.463006296	1.624493704	-4.848006296	1.804493704	2.534493704	2.424493704	-8.138006296	-0.340506296	-1.228006296	-1.508006296	3.931993704	-0.338006296	4.304493704	1.159493704	2.781993704	0.024493704	-2.178006296	-10.1880063	-2.195506296	-3.253006296	1.486993704	-1.058006296	-3.003006296	0.416993704	-0.888006296	0.899493704	0.491993704	0.841993704	1.164493704	3.996993704	3.231993704	2.816993704	0.811993704	1.809493704	2.296993704	3.864493704	1.016993704	3.239493704	-15.3130063	-0.350506296	-0.068006296	-12.7530063	-0.100506296	-0.223006296	2.366993704	-2.278006296	-15.3130063	-0.875506296	-4.925506296	1.281993704	-2.933006296	-0.693006296	1.796993704	-3.748006296	1.736993704	0.546993704	2.041993704	-0.600506296	5.606993704	-15.3130063	-7.260506296	-3.635506296	0.806993704	3.119493704	0.961993704	-0.250506296	3.376993704	1.449493704	-15.3130063	3.411993704	0.444493704	-0.375506296	-1.835506296	4.164493704	-15.3130063	3.854493704	-15.3130063	4.951993704	-1.120506296	3.509493704	1.669493704	-0.638006296	-8.483006296	-5.428006296	0.879493704	0.636993704	1.201993704	1.751993704	-4.285506296	-8.380506296	-4.250506296	-3.218006296
gene24	1.362376374	0.164876374	1.032376374	0.544876374	0.724876374	1.829876374	-0.505123626	2.394876374	-2.215123626	3.589876374	0.024876374	2.537376374	1.089876374	0.967376374	0.677376374	0.302376374	2.402376374	0.222376374	2.717376374	1.592376374	1.229876374	-2.787623626	1.402376374	-2.240123626	2.337376374	-0.250123626	1.434876374	1.722376374	2.864876374	2.392376374	1.557376374	2.769876374	0.282376374	4.839876374	-0.570123626	2.099876374	0.052376374	0.164876374	1.514876374	0.339876374	1.432376374	-0.510123626	3.194876374	1.782376374	1.339876374	2.912376374	2.494876374	1.154876374	-0.197623626	-1.075123626	-2.685123626	-1.295123626	-4.600123626	-3.617623626	-2.732623626	2.132376374	-0.975123626	2.144876374	1.377376374	1.757376374	0.367376374	0.212376374	1.419876374	1.432376374	2.029876374	0.024876374	2.239876374	0.509876374	1.587376374	0.209876374	3.219876374	-0.810123626	1.024876374	1.064876374	2.434876374	2.987376374	3.017376374	-1.127623626	1.857376374	6.054876374	3.377376374	0.607376374	0.657376374	2.289876374	0.557376374	1.547376374	-8.635123626	-0.797623626	1.949876374	1.267376374	0.969876374	2.289876374	-0.607623626	-5.682623626	-0.257623626	1.389876374	-0.687623626	-1.525123626	-5.292623626	-2.182623626	-6.457623626	-4.540123626	-5.845123626	2.544876374	-4.542623626	-0.082623626	-6.867623626	1.242376374	1.117376374	0.077376374	-0.017623626	1.057376374	1.209876374	-2.230123626	0.564876374	-5.625123626	0.472376374	-6.275123626	0.804876374	-5.965123626	-1.250123626	1.019876374	-0.322623626	-1.215123626	-2.942623626	-1.015123626	0.909876374	1.969876374	-0.962623626	0.482376374	1.054876374	2.079876374	0.234876374	-3.680123626	0.867376374	-0.577623626	1.277376374	-1.037623626	-1.800123626	-0.730123626	1.924876374	0.579876374	0.709876374	-2.522623626	-3.082623626	-2.107623626	-5.927623626	-2.035123626	-2.462623626	-2.615123626	-3.800123626	1.522376374	-1.750123626	0.762376374	1.164876374	0.832376374	1.647376374	0.589876374	0.752376374	-0.500123626	1.707376374	-0.607623626	-0.370123626	-13.28762363	-3.155123626	-1.257623626	1.469876374	0.277376374	1.372376374	4.019876374	1.094876374	1.807376374	2.384876374	-0.007623626	2.282376374	0.997376374	0.327376374	-1.615123626	1.524876374	1.799876374	1.704876374	2.102376374	0.437376374	0.677376374	1.339876374	-1.505123626	0.957376374	0.882376374	1.564876374	1.804876374	-0.627623626	-3.002623626	-5.220123626	-4.755123626	-3.902623626	-6.200123626	-4.222623626	-0.657623626	-4.812623626	-6.252623626	-4.142623626	1.402376374	4.964876374	-1.245123626	2.859876374	1.107376374	0.564876374	-0.145123626	1.259876374	-4.595123626	1.024876374	-5.502623626	-4.202623626	-5.335123626	1.884876374	-0.555123626	1.649876374	-0.300123626	1.237376374	2.999876374	2.222376374	2.192376374	2.732376374	1.467376374	-0.935123626	0.394876374	2.949876374	2.222376374	-1.012623626	1.642376374	1.827376374	2.377376374	1.509876374	-0.225123626	2.949876374	2.412376374	-2.607623626	1.572376374	-1.537623626	-1.942623626	-3.835123626	-3.985123626	-2.935123626	-3.870123626	-4.307623626	-0.332623626	-4.995123626	0.929876374	-11.63512363	0.944876374	-0.660123626	-0.075123626	1.072376374	0.097376374	3.492376374	-4.002623626	0.799876374	-3.620123626	1.242376374	-3.662623626	-2.022623626	-3.905123626	1.302376374	-0.347623626	0.079876374	0.497376374	1.612376374	1.719876374	0.609876374	-0.470123626	1.644876374	3.349876374	2.012376374	0.549876374	-11.56262363	1.469876374	1.979876374	2.439876374	0.997376374	1.784876374	-1.262623626	2.247376374	1.097376374	1.887376374	0.419876374	1.914876374	1.047376374	1.659876374	-1.652623626	0.987376374	-1.940123626	-2.257623626	-1.457623626	3.087376374	-1.917623626	0.442376374	-2.092623626	1.904876374	3.987376374	-6.262623626	0.259876374	1.862376374	1.037376374	0.962376374	1.987376374	0.434876374	0.332376374	-2.860123626	-0.607623626	-2.565123626	-1.075123626	1.854876374	0.237376374	1.492376374	1.654876374	2.512376374	3.282376374	1.567376374	2.307376374	0.709876374	-2.280123626	2.407376374	-1.277623626	-2.017623626	2.002376374	-0.672623626	1.932376374	1.312376374	0.957376374	1.084876374	-1.807623626	0.784876374	-2.055123626	0.429876374	-2.857623626	2.134876374	-1.662623626	-0.005123626	2.992376374	1.114876374	1.614876374	1.507376374	2.959876374	2.469876374	1.399876374	-0.970123626	0.352376374	-0.670123626	-1.605123626	0.177376374	1.194876374	-1.185123626	1.344876374	1.547376374	1.682376374	-0.452623626	1.774876374	3.212376374	1.627376374	1.507376374	1.339876374	1.864876374	-1.255123626	1.857376374
gene25	0.448224087	0.970724087	-3.721775913	-4.749275913	-3.469275913	-5.344275913	-4.219275913	-0.799275913	-1.069275913	2.075724087	-1.689275913	-2.056775913	-0.444275913	-0.656775913	-1.336775913	-0.121775913	0.338224087	-2.451775913	-4.506775913	-3.021775913	1.295724087	-1.101775913	0.488224087	-3.914275913	1.183224087	-0.244275913	1.270724087	0.728224087	2.420724087	0.238224087	-3.626775913	1.645724087	-0.141775913	-1.924275913	0.095724087	1.305724087	0.008224087	-0.149275913	-0.079275913	-9.781775913	-4.931775913	1.985724087	0.330724087	1.428224087	1.155724087	-0.591775913	-0.519275913	1.640724087	1.838224087	-3.259275913	3.760724087	-1.619275913	4.695724087	-3.101775913	-0.696775913	1.998224087	3.510724087	0.610724087	2.903224087	1.363224087	2.583224087	-0.671775913	0.695724087	-0.381775913	1.095724087	4.000724087	-6.504275913	3.875724087	-0.236775913	2.035724087	0.655724087	7.035724087	0.130724087	-4.499275913	0.950724087	0.653224087	0.223224087	-0.781775913	0.823224087	-0.389275913	-0.446775913	1.573224087	-1.006775913	0.285724087	0.813224087	-1.996775913	-1.4192759129999999	-3.431775913	-1.214275913	1.623224087	-4.244275913	2.425724087	-4.281775913	-0.316775913	-6.161775913	0.925724087	0.388224087	-0.719275913	1.003224087	0.163224087	0.098224087	-0.674275913	-1.069275913	-0.949275913	1.523224087	0.833224087	1.908224087	-0.171775913	1.053224087	-1.186775913	-0.081775913	-1.016775913	1.665724087	-0.824275913	0.350724087	0.870724087	-3.241775913	0.480724087	0.890724087	1.760724087	1.925724087	1.135724087	-5.086775913	-3.069275913	0.413224087	-1.509275913	-2.964275913	-4.434275913	1.203224087	2.308224087	0.070724087	1.425724087	3.220724087	-4.844275913	2.153224087	-8.781775913	2.133224087	3.878224087	1.235724087	1.085724087	-2.029275913	0.895724087	-0.674275913	1.1432240870000001	4.743224087	0.318224087	0.428224087	-4.429275913	5.193224087	1.730724087	2.515724087	1.608224087	-0.924275913	-1.961775913	-0.249275913	2.138224087	0.463224087	1.505724087	-4.521775913	1.795724087	-1.336775913	0.968224087	2.145724087	2.778224087	-2.889275913	5.728224087	-0.884275913	1.903224087	-3.021775913	-0.384275913	0.590724087	-4.886775913	0.400724087	0.938224087	0.238224087	0.763224087	1.413224087	-5.159275913	-7.549275913	1.075724087	-0.019275913	0.548224087	-0.396775913	1.433224087	1.565724087	-2.479275913	2.593224087	-6.551775913	0.870724087	-3.149275913	-0.011775913	1.213224087	-1.264275913	0.350724087	-0.856775913	2.545724087	-1.3567759129999999	3.358224087	-1.406775913	1.463224087	-4.046775913	-1.311775913	2.980724087	-1.289275913	3.165724087	0.523224087	-0.659275913	0.910724087	-0.544275913	0.570724087	-2.409275913	1.433224087	-1.006775913	0.680724087	-0.259275913	-0.089275913	0.075724087	-1.0442759129999999	0.733224087	-3.544275913	1.448224087	1.278224087	1.218224087	-2.736775913	-0.069275913	-1.119275913	-0.754275913	1.498224087	-0.866775913	0.018224087	-1.896775913	1.033224087	-2.684275913	0.770724087	2.305724087	2.128224087	1.578224087	2.128224087	-1.611775913	4.013224087	0.370724087	2.250724087	-2.669275913	2.325724087	-0.041775913	-1.176775913	1.120724087	0.935724087	-2.069275913	-0.019275913	-1.884275913	-3.739275913	-0.561775913	0.633224087	1.068224087	-1.896775913	0.125724087	-0.504275913	1.858224087	-0.786775913	2.543224087	1.340724087	1.758224087	-3.811775913	-0.714275913	-5.816775913	1.568224087	-7.494275913	2.155724087	-1.144275913	2.100724087	-7.434275913	-0.141775913	2.075724087	-2.586775913	1.005724087	-4.104275913	-1.234275913	-3.166775913	1.370724087	-2.416775913	1.043224087	-0.656775913	0.003224087	-2.444275913	0.420724087	2.733224087	4.805724087	-2.026775913	0.223224087	-1.704275913	4.758224087	6.278224087	2.923224087	5.098224087	-2.001775913	6.213224087	1.250724087	1.373224087	1.003224087	3.335724087	1.108224087	1.353224087	3.928224087	1.033224087	0.790724087	0.418224087	5.215724087	1.138224087	4.440724087	-2.259275913	-0.539275913	-0.666775913	4.888224087	0.510724087	0.668224087	-1.251775913	0.363224087	-2.626775913	-0.544275913	-0.114275913	1.933224087	1.408224087	2.078224087	1.238224087	-1.326775913	3.038224087	0.288224087	0.343224087	-1.139275913	0.228224087	1.210724087	1.170724087	0.325724087	-1.851775913	2.020724087	1.753224087	1.180724087	1.728224087	0.960724087	-0.669275913	-0.886775913	1.645724087	-1.084275913	1.925724087	1.605724087	2.058224087	-0.454275913	-0.129275913	1.763224087	0.520724087	-1.009275913	-5.049275913	2.563224087	0.728224087	-6.336775913	1.040724087	0.198224087	-0.276775913	1.443224087	1.165724087	7.24087e-4	-2.749275913	-2.726775913
gene26	-4.517680517	3.754819483	-2.797680517	4.224819483	-0.335180517	2.039819483	1.284819483	1.214819483	2.694819483	1.029819483	0.634819483	-1.132680517	-1.050180517	1.127319483	1.297319483	1.922319483	-0.607680517	-4.307680517	-1.392680517	0.992319483	4.439819483	-2.267680517	-0.287680517	-1.350180517	0.377319483	-4.090180517	0.374819483	1.942319483	1.184819483	1.332319483	-1.892680517	2.979819483	2.602319483	5.519819483	-2.950180517	1.649819483	-0.167680517	-0.525180517	1.314819483	-2.240180517	-3.257680517	-1.690180517	2.014819483	0.372319483	2.909819483	1.152319483	2.094819483	-0.745180517	-0.507680517	2.904819483	2.354819483	-2.575180517	2.959819483	3.892319483	-0.992680517	-2.427680517	1.144819483	0.874819483	0.617319483	0.627319483	-6.452680517	-5.307680517	0.499819483	-1.877680517	0.619819483	3.134819483	0.349819483	3.919819483	-13.21268052	-2.130180517	3.169819483	3.079819483	-0.135180517	-5.265180517	2.084819483	-3.992680517	0.307319483	-6.697680517	0.417319483	-0.845180517	1.717319483	0.907319483	1.107319483	2.079819483	-2.182680517	-2.332680517	-13.21268052	-0.677680517	-13.21268052	-2.772680517	-4.040180517	-0.420180517	-4.207680517	-2.732680517	-4.507680517	-0.440180517	-4.197680517	3.554819483	1.917319483	5.397319483	0.242319483	4.019819483	2.244819483	-1.035180517	1.567319483	1.957319483	0.882319483	0.062319483	-0.012680517	0.607319483	-1.447680517	-4.062680517	0.269819483	0.209819483	-1.125180517	0.694819483	-1.197680517	1.754819483	2.374819483	0.624819483	-1.180180517	0.919819483	-1.182680517	-2.425180517	-2.512680517	-2.175180517	1.069819483	0.549819483	-1.782680517	1.662319483	0.364819483	-13.21268052	-0.445180517	-1.520180517	5.167319483	-6.197680517	2.687319483	-6.347680517	0.479819483	0.369819483	-4.905180517	0.299819483	2.759819483	-3.442680517	2.317319483	3.062319483	1.122319483	-13.21268052	4.317319483	2.054819483	2.679819483	-4.907680517	-10.79018052	-0.537680517	0.584819483	3.502319483	0.327319483	-0.520180517	0.532319483	3.889819483	1.367319483	2.612319483	0.219819483	-9.727680517	2.834819483	4.572319483	0.099819483	3.057319483	2.292319483	0.839819483	0.594819483	1.057319483	1.064819483	-1.027680517	0.972319483	-2.642680517	-12.21268052	-0.275180517	-1.255180517	-0.710180517	1.644819483	0.662319483	-13.21268052	-0.182680517	-0.670180517	-13.21268052	1.577319483	-1.057680517	2.684819483	1.034819483	-0.377680517	-0.592680517	-0.390180517	1.684819483	-2.272680517	-0.370180517	-0.392680517	1.042319483	-3.682680517	-3.812680517	-3.142680517	1.292319483	-1.035180517	1.564819483	1.799819483	-0.062680517	-1.105180517	-0.925180517	0.209819483	1.404819483	1.084819483	0.147319483	-0.942680517	0.284819483	-0.915180517	0.614819483	-1.680180517	-1.360180517	-1.552680517	1.459819483	-1.977680517	2.452319483	2.562319483	-0.862680517	-4.275180517	-5.595180517	0.709819483	1.832319483	-1.102680517	0.792319483	-0.392680517	0.387319483	-13.21268052	-0.075180517	1.759819483	2.012319483	-1.307680517	1.662319483	-2.667680517	-0.592680517	-1.665180517	-13.21268052	2.444819483	-6.920180517	1.362319483	-1.282680517	-1.985180517	0.339819483	-6.475180517	-1.975180517	-4.460180517	-3.785180517	-1.567680517	-2.452680517	0.972319483	-4.472680517	3.169819483	-2.220180517	0.212319483	-0.732680517	-0.722680517	-0.145180517	1.392319483	-1.697680517	1.529819483	-4.832680517	2.972319483	-7.240180517	2.359819483	-3.530180517	1.014819483	-2.150180517	0.892319483	3.019819483	-2.452680517	-1.120180517	2.479819483	1.479819483	-4.082680517	0.194819483	-3.3226805169999998	1.347319483	-1.912680517	1.797319483	0.909819483	0.924819483	-0.432680517	1.579819483	3.597319483	-1.112680517	4.359819483	-0.177680517	3.372319483	-1.682680517	8.592319483	0.892319483	1.927319483	1.904819483	1.067319483	-1.222680517	0.919819483	-0.027680517	-0.942680517	5.672319483	2.147319483	3.404819483	1.362319483	7.119819483	-1.117680517	1.304819483	-1.225180517	0.224819483	0.227319483	1.142319483	-4.585180517	2.012319483	2.062319483	-0.082680517	-13.21268052	-2.730180517	5.399819483	1.657319483	0.632319483	0.262319483	3.382319483	-2.162680517	1.772319483	-0.277680517	1.767319483	2.474819483	2.392319483	0.644819483	-0.755180517	-1.120180517	2.212319483	2.264819483	1.927319483	-3.515180517	2.482319483	0.914819483	-0.175180517	1.557319483	-2.110180517	-0.440180517	-1.150180517	-0.920180517	1.462319483	2.809819483	-2.915180517	2.967319483	0.054819483	3.124819483	1.544819483	-2.592680517	-2.687680517	-13.21268052	1.494819483	0.252319483	1.737319483	-0.012680517	-3.660180517	-5.285180517	-3.315180517	0.187319483
gene27	0.618022244	2.430522244	0.418022244	2.830522244	1.130522244	-1.814477756	2.600522244	2.580522244	0.830522244	-0.344477756	-0.719477756	1.013022244	-0.344477756	1.713022244	-3.876977756	0.328022244	-0.181977756	-0.751977756	-5.856977756	2.038022244	2.565522244	1.628022244	1.818022244	-0.324477756	2.373022244	-2.554477756	1.620522244	1.388022244	3.600522244	2.318022244	-3.696977756	4.145522244	-3.161977756	-2.904477756	-0.444477756	0.795522244	-2.131977756	-1.049477756	-0.089477756	1.595522244	0.768022244	-0.074477756	-0.689477756	-0.851977756	-1.734477756	-1.591977756	1.790522244	-2.169477756	1.938022244	-4.899477756	0.600522244	5.430522244	2.595522244	-0.141977756	1.563022244	-0.001977756	1.920522244	0.320522244	1.973022244	-1.756977756	-2.906977756	0.038022244	-2.364477756	0.088022244	4.805522244	4.020522244	-0.734477756	3.065522244	-3.646977756	1.495522244	-1.344477756	5.025522244	-1.519477756	0.320522244	1.270522244	0.013022244	0.023022244	-3.751977756	-0.17697775600000001	-4.719477756	0.153022244	-1.726977756	-1.066977756	-0.214477756	-4.046977756	0.143022244	-4.779477756	0.398022244	-2.754477756	-1.786977756	-1.614477756	5.205522244	-2.701977756	-1.136977756	-2.971977756	0.445522244	1.458022244	1.720522244	2.623022244	3.463022244	1.958022244	4.495522244	0.550522244	1.620522244	3.123022244	0.183022244	1.908022244	-0.481977756	1.333022244	0.103022244	-1.621977756	-0.146977756	2.335522244	0.575522244	0.010522244	0.260522244	0.198022244	0.900522244	0.920522244	0.300522244	1.445522244	-8.914477756	-2.426977756	-4.869477756	-3.096977756	-9.914477756	-1.124477756	-0.094477756	-2.486977756	-1.421977756	1.520522244	-4.994477756	-2.479477756	-2.604477756	-2.966977756	-1.021977756	-0.566977756	-5.291977756	-3.694477756	-2.224477756	-0.059477756	2.015522244	0.745522244	-0.316977756	3.413022244	2.998022244	2.538022244	0.800522244	5.213022244	1.550522244	3.005522244	2.398022244	2.615522244	0.678022244	1.190522244	3.088022244	-0.496977756	0.265522244	2.378022244	3.425522244	-0.256977756	5.878022244	-0.984477756	2.678022244	2.740522244	5.558022244	-2.544477756	5.983022244	-0.631977756	-3.624477756	0.120522244	1.463022244	-0.449477756	-0.431977756	3.608022244	-2.516977756	-4.366977756	-2.649477756	-3.059477756	1.625522244	-1.899477756	0.438022244	-1.766977756	-1.636977756	0.625522244	0.710522244	-1.696977756	-0.631977756	3.830522244	-1.109477756	1.598022244	1.843022244	-0.884477756	2.150522244	-2.946977756	2.515522244	0.673022244	2.068022244	-0.106977756	-2.106977756	1.023022244	-0.311977756	-4.829477756	-0.469477756	0.965522244	1.663022244	-2.849477756	1.470522244	0.145522244	1.120522244	1.990522244	-0.876977756	1.913022244	0.080522244	-2.039477756	-0.23947775600000001	-0.904477756	0.825522244	2.203022244	0.675522244	-3.021977756	-2.181977756	-0.401977756	-0.926977756	0.450522244	-3.359477756	-0.614477756	0.308022244	0.423022244	1.658022244	-3.296977756	-2.586977756	-0.834477756	-0.779477756	-0.044477756	5.828022244	-4.991977756	4.848022244	-0.671977756	-0.336977756	0.750522244	-2.309477756	0.550522244	-1.724477756	0.588022244	-5.756977756	1.570522244	-1.444477756	-1.999477756	-1.799477756	-6.964477756	-2.839477756	1.168022244	2.133022244	-0.331977756	-1.536977756	-0.534477756	-1.174477756	0.808022244	-0.406977756	-3.906977756	1.210522244	3.238022244	-2.761977756	-1.914477756	-2.076977756	-0.321977756	1.785522244	-2.084477756	1.135522244	1.280522244	-5.434477756	0.228022244	-2.814477756	-1.276977756	0.975522244	-1.014477756	0.685522244	-3.376977756	2.140522244	-3.206977756	-0.366977756	-2.816977756	-2.696977756	-5.364477756	1.210522244	-3.206977756	0.065522244	0.493022244	-2.176977756	2.795522244	2.578022244	-0.701977756	0.953022244	4.458022244	-1.071977756	3.133022244	0.570522244	-1.276977756	-1.386977756	-1.324477756	1.948022244	-0.456977756	3.748022244	1.763022244	5.370522244	0.818022244	0.475522244	0.378022244	5.340522244	-9.914477756	-0.959477756	-2.126977756	0.308022244	2.150522244	-1.111977756	-0.521977756	-1.706977756	-9.914477756	-2.454477756	-4.834477756	5.193022244	-4.621977756	-1.511977756	-1.961977756	-2.446977756	0.538022244	-0.951977756	-0.976977756	-0.289477756	1.478022244	0.220522244	2.150522244	3.565522244	0.758022244	3.410522244	3.253022244	-4.359477756	5.028022244	2.210522244	-0.479477756	-2.376977756	1.475522244	-2.654477756	-0.914477756	-1.814477756	-0.381977756	4.195522244	-3.599477756	3.483022244	-2.269477756	3.410522244	-0.249477756	2.613022244	-1.071977756	1.083022244	0.670522244	5.308022244	2.173022244	-1.786977756	-1.284477756	1.620522244	-2.579477756	-3.656977756
gene28	0.086387363	-0.371112637	-0.493612637	1.028887363	-0.301112637	0.263887363	-0.821112637	1.018887363	-1.941112637	1.573887363	-1.011112637	1.181387363	0.493887363	0.121387363	1.431387363	-0.873612637	1.046387363	1.706387363	-0.068612637	1.806387363	1.123887363	1.926387363	0.606387363	0.633887363	0.051387363	-0.946112637	1.508887363	1.886387363	1.778887363	1.606387363	-0.968612637	1.773887363	0.616387363	0.583887363	-1.646112637	1.273887363	1.306387363	-0.371112637	1.348887363	0.713887363	-0.173612637	-0.226112637	1.158887363	0.446387363	1.133887363	-1.043612637	1.328887363	1.458887363	2.896387363	0.498887363	3.358887363	-0.021112637	4.493887363	-2.973612637	2.441387363	0.886387363	1.698887363	0.398887363	0.641387363	0.401387363	1.991387363	-0.823612637	-0.746112637	0.236387363	3.023887363	3.138887363	0.823887363	3.233887363	0.521387363	2.503887363	2.213887363	3.883887363	3.098887363	-0.561112637	0.918887363	0.281387363	1.381387363	-1.963612637	0.151387363	-1.301112637	0.221387363	6.691387363	0.021387363	2.043887363	-0.648612637	-0.868612637	-1.731112637	1.056387363	-0.986112637	-0.368612637	-1.306112637	2.183887363	-2.303612637	0.411387363	0.476387363	-1.036112637	-0.533612637	-1.561112637	-5.708612637	-3.678612637	-5.453612637	-3.656112637	-4.251112637	1.418887363	-4.228612637	-0.008612637	-7.633612637	0.486387363	0.251387363	-1.098612637	0.226387363	-1.128612637	0.623887363	-1.926112637	-0.931112637	-4.661112637	-0.103612637	-4.411112637	-0.641112637	-5.311112637	-2.086112637	2.943887363	-0.458612637	1.198887363	-2.488612637	-4.831112637	0.083887363	0.773887363	-1.888612637	-3.093612637	-0.211112637	0.073887363	3.518887363	-3.796112637	-1.118612637	-1.073612637	2.051387363	-3.403612637	-0.996112637	0.483887363	-2.721112637	1.523887363	-0.886112637	-2.148612637	1.871387363	-0.883612637	-1.563612637	-2.121112637	-1.868612637	-0.751112637	-0.796112637	1.346387363	-2.836112637	-0.563612637	1.208887363	0.216387363	0.861387363	-0.766112637	0.556387363	0.883887363	0.141387363	2.376387363	-0.406112637	1.106387363	-1.641112637	1.376387363	0.523887363	1.511387363	0.376387363	-4.676112637	0.228887363	-1.018612637	3.208887363	1.046387363	1.346387363	-0.708612637	-0.138612637	-0.721112637	-1.551112637	0.643887363	-0.701112637	-0.303612637	1.811387363	1.771387363	-1.046112637	2.578887363	0.261387363	0.106387363	0.358887363	2.058887363	-0.383612637	-1.748612637	-2.306112637	-4.751112637	-3.838612637	-3.676112637	-2.628612637	-2.493612637	-2.628612637	-3.358612637	-4.638612637	-0.393612637	1.078887363	-1.641112637	2.203887363	-0.468612637	0.068887363	-0.991112637	-0.126112637	-3.761112637	-0.541112637	-4.348612637	-3.588612637	-2.211112637	-0.241112637	-1.271112637	1.303887363	-0.696112637	0.571387363	-2.186112637	1.936387363	-0.463612637	-0.003612637	-1.468612637	-0.211112637	-0.241112637	-1.826112637	0.636387363	2.751387363	0.896387363	0.851387363	1.981387363	-1.116112637	-0.741112637	6.473887363	2.456387363	-1.863612637	1.286387363	-2.553612637	2.481387363	-2.451112637	0.788887363	-3.391112637	0.493887363	-2.943612637	0.711387363	-2.751112637	0.393887363	-2.851112637	-0.491112637	-1.106112637	-4.401112637	-0.233612637	-1.838612637	1.806387363	-3.978612637	-0.516112637	-3.566112637	0.596387363	-4.558612637	1.351387363	-3.191112637	1.746387363	-2.853612637	0.143887363	0.711387363	0.656387363	-0.396112637	2.023887363	-0.396112637	1.238887363	0.723887363	1.306387363	-0.576112637	-3.538612637	1.023887363	0.143887363	0.923887363	-2.028612637	0.168887363	0.631387363	0.291387363	2.601387363	0.991387363	-0.596112637	0.688887363	-0.958612637	1.193887363	4.161387363	0.331387363	3.383887363	0.286387363	1.706387363	3.161387363	2.606387363	0.166387363	2.011387363	0.378887363	2.021387363	-2.898612637	-1.076112637	0.676387363	-1.438612637	2.056387363	0.671387363	3.098887363	0.706387363	1.943887363	-0.093612637	5.138887363	-1.151112637	3.688887363	-0.308612637	0.316387363	0.258887363	1.096387363	0.616387363	2.281387363	2.711387363	-1.116112637	-0.356112637	1.931387363	-1.863612637	-0.853612637	-1.653612637	-0.638612637	0.886387363	0.606387363	0.701387363	-0.181112637	3.246387363	0.298887363	1.778887363	-0.576112637	3.326387363	2.018887363	2.771387363	0.648887363	2.776387363	0.268887363	0.158887363	2.801387363	1.703887363	-0.476112637	-0.286112637	-1.206112637	0.056387363	4.813887363	-1.881112637	4.051387363	0.008887363	3.418887363	-0.011112637	1.071387363	-0.473612637	-0.378612637	0.558887363	-1.353612637	2.471387363	1.051387363	0.643887363	0.988887363	-2.371112637	-0.808612637
gene29	-1.047753875	0.694746125	-1.877753875	1.374746125	-2.605253875	0.479746125	-4.075253875	0.584746125	-1.255253875	0.799746125	-2.2952538750000002	0.017246125	-0.370253875	-1.662753875	-0.622753875	-0.267753875	-0.777753875	-1.207753875	-2.102753875	-4.107753875	1.129746125	-4.467753875	-0.397753875	-5.620253875	0.037246125	-0.290253875	-0.175253875	-0.247753875	0.744746125	0.292246125	-0.542753875	1.309746125	-1.217753875	0.839746125	-0.620253875	-0.750253875	-0.427753875	-2.245253875	-0.455253875	-6.620253875	0.442246125	-0.210253875	-0.035253875	0.252246125	0.809746125	-1.157753875	0.394746125	0.534746125	0.802246125	2.004746125	4.284746125	-4.855253875	3.979746125	-3.427753875	1.957246125	0.492246125	3.264746125	-1.505253875	1.507246125	0.317246125	4.187246125	-0.627753875	-1.000253875	-1.227753875	0.809746125	3.924746125	0.509746125	4.509746125	0.117246125	2.289746125	0.289746125	5.849746125	-1.445253875	-1.405253875	0.034746125	-0.102753875	-0.822753875	1.922246125	-0.492753875	-0.835253875	-0.092753875	1.957246125	-1.222753875	0.639746125	-1.342753875	-0.192753875	-3.615253875	0.42224612500000003	1.509746125	0.757246125	-1.030253875	0.159746125	-2.097753875	-1.272753875	0.732246125	-0.090253875	-3.8577538750000002	-1.885253875	-1.582753875	-0.342753875	-1.747753875	-2.030253875	-1.425253875	-1.805253875	0.357246125	-0.522753875	-0.607753875	-0.177753875	0.857246125	-0.602753875	-0.067753875	-1.072753875	1.189746125	-0.160253875	-0.395253875	-0.775253875	-1.467753875	-1.055253875	-0.385253875	-0.515253875	0.139746125	0.309746125	-3.792753875	-3.025253875	-3.262753875	-4.295253875	0.119746125	-0.190253875	-0.992753875	-1.257753875	-1.345253875	-0.680253875	2.524746125	-0.740253875	-0.362753875	-2.557753875	-0.182753875	-1.287753875	-3.750253875	0.189746125	-0.695253875	1.619746125	1.269746125	0.217246125	3.667246125	0.822246125	1.862246125	-0.515253875	3.967246125	1.794746125	2.569746125	0.412246125	1.069746125	-0.567753875	-0.085253875	0.722246125	0.057246125	-0.520253875	0.262246125	3.049746125	-0.062753875	6.042246125	0.379746125	3.602246125	-1.625253875	4.682246125	-0.730253875	-0.552753875	1.182246125	-2.340253875	-0.115253875	0.757246125	0.084746125	-2.447753875	1.052246125	-0.192753875	-0.592753875	-1.075253875	-0.705253875	0.089746125	-1.505253875	-0.377753875	0.467246125	0.027246125	-0.600253875	2.084746125	0.317246125	0.312246125	-1.575253875	-1.225253875	-0.517753875	1.027246125	-0.840253875	1.254746125	-1.092753875	1.409746125	-2.492753875	3.002246125	-1.352753875	-0.582753875	-1.922753875	-0.307753875	-1.125253875	-0.515253875	1.859746125	-0.472753875	1.114746125	-0.105253875	-2.430253875	-0.965253875	-0.555253875	-0.662753875	-1.612753875	-2.2952538750000002	-0.085253875	0.464746125	5.249746125	-1.160253875	0.757246125	3.229746125	0.192246125	0.332246125	0.012246125	-1.752753875	-1.395253875	-1.475253875	-1.280253875	-0.067753875	-2.942753875	-0.237753875	0.127246125	2.397246125	-1.750253875	0.344746125	6.109746125	0.632246125	-2.517753875	0.642246125	-0.887753875	5.047246125	0.134746125	2.444746125	0.574746125	1.419746125	0.462246125	2.837246125	0.514746125	-0.030253875	-0.945253875	-1.115253875	-0.890253875	-4.985253875	-0.607753875	-0.902753875	0.452246125	-1.382753875	-1.120253875	-1.590253875	0.872246125	-0.542753875	1.877246125	0.404746125	0.512246125	-1.797753875	-0.460253875	-2.532753875	0.582246125	-2.310253875	1.459746125	-0.050253875	1.334746125	-1.360253875	-0.247753875	0.079746125	-2.632753875	-0.200253875	-2.4202538750000002	0.929746125	-3.092753875	0.804746125	-3.442753875	0.997246125	-0.072753875	1.547246125	0.049746125	-0.415253875	0.647246125	3.899746125	2.867246125	-0.392753875	1.969746125	4.992246125	4.382246125	1.547246125	3.952246125	0.862246125	4.517246125	0.344746125	0.037246125	-0.592753875	1.219746125	0.022246125	0.807246125	2.262246125	0.447246125	3.004746125	0.762246125	5.159746125	-0.787753875	4.384746125	-1.165253875	0.554746125	-0.412753875	-0.097753875	0.654746125	0.162246125	0.412246125	0.667246125	-3.382753875	-0.790253875	0.389746125	0.777246125	0.112246125	-0.047753875	0.432246125	-0.692753875	1.042246125	0.182246125	-1.022753875	-0.135253875	0.902246125	1.694746125	-0.045253875	-0.770253875	0.432246125	2.024746125	1.127246125	-0.085253875	0.212246125	0.124746125	0.214746125	0.047246125	0.479746125	-1.830253875	0.559746125	0.159746125	0.472246125	-0.420253875	-0.395253875	0.937246125	-1.895253875	-0.365253875	-0.105253875	1.957246125	-0.357753875	-1.012753875	0.674746125	-0.377753875	1.707246125	0.617246125	-0.710253875	1.554746125	-2.515253875	-1.642753875
